X:1
T:Concerto for two harpishcords No. 1
T:Allegro
T:BWV 1060
T:Adaptation for four keyaboard instruments
T:Johann Sebastian Bach
%%score { ( 1 2 5 ) | ( 3 4 ) } { ( 6 7 ) | ( 8 9 ) } { 10 | 11 } { 12 | 13 }
L:1/8
M:4/4
K:Eb
V:1 treble nm="Harpsichord 1"
V:2 treble 
V:5 treble 
V:3 bass 
V:4 bass 
V:6 treble nm="Harpsichord 2"
V:7 treble 
V:8 bass 
V:9 bass 
V:10 treble nm="Harpsichord 3"
V:11 bass 
V:12 treble nm="Harpsichord 4"
V:13 bass 
V:1
 Gced Gc/d/ e/d/e/d/ | cd/e/ f/g/a ad ad | FBdc FB/c/ d/c/d/c/ | Bc/d/ e/f/g gc gc | %4
 c'/b/a/g/ ff g/4f/4g/4f/4g/4f/4g/4f/4 f/c/f/g/ | a/g/f/e/ _dd e/4d/4e/4d/4e/4d/4e/4d/4 d/A/d/e/ | %6
 f/g/a/g/ f/e/=d/c/ =B gcf | e>d e/4d/4e/4d/4d/c/ c2 z/ A/G/F/ | %8
 E/c/F/c/ E/c/D/c/ E/c/A/c/ G/c/F/c/ | G/c/F/c/ E/c/D/c/ E/D/C/D/ E/F/G/=A/ | %10
 =B/G/c/G/ d/G/c/G/ B/G/F/D/ E/G/c/e/ | a/f/d/=B/ c/e/^f/=a/ c'/a/=b/d'/ g/=f/e/d/ | %12
 Gced Gc/d/ e/d/e/d/ | cd/e/ f/g/a ad B,/C/D/E/ | F/B,/E/B,/ A/B,/G/B,/ F/B,/E/B,/ D/B,/C/B,/ | %15
 FBdc FB/c/ d/c/d/c/ | Bc/d/ e/f/g gc C/=B,/C/D/ | E/C/F/C/ E/C/A/C/ G/C/F/C/ E/C/D/C/ | %18
 c/B/A/G/ FF F2 z2 | B/A/G/F/ EE E2 z2 | z8 | z4 z/ f/a/g/ f/e/d/c/ | Begf Be/f/ g/f/g/f/ | %23
 ef/g/ a/b/c' c'd z2 | de/f/ g/a/b bc z2 | cd/e/ f/g/a aB z2 | z2 eB z2 eB | z2 eB z2 e/d/c/B/ | %28
 AA A3 A/G/ F/E/D/C/ | B,B,B, z z4 | z8 | z8 | B,EGF B,E/F/ G/F/G/F/ | EF/G/ A/B/c cF z2 | %34
 A,DFE A,D/E/ F/E/F/E/ | DE/F/ G/A/B BE z2 | e/c/A/E/ A/c/e/d/ e/B/G/E/ G/B/e/d/ | %37
 e/c/=A/F/ A/c/e/B/ d/B/F/D/ F/B/d/B/ | c/=A/^F/C/ F/A/c/B/ c/G/E/C/ E/G/c/B/ | %39
 c/=A/^F/D/ F/A/c/A/ B/G/D/G/ B/d/e/d/ | c/=A/F/A/ c/e/f/e/ d/B/G/B/ d/f/g/f/ | %41
 e/c/G/c/ e/g/=a/g/ ^f/c/=A/c/ f/a/b/a/ | g/d/B/c/ d/g/c/g/ B/G/D/=F/ G/D/G/D/ | %43
 B,DGc- c/=A/F/A/ c/f/g/f/ | e/c/=A/B/ c/e/B/e/ A/F/C/=E/ F/C/F/C/ | =A,CFB- B/G/E/G/ B/d/e/d/ | %46
 c g/f/ e/d/c/=B/ c/_A/G/F/ E/D/C/=B,/ | C e/d/ c/B/_A/G/ A/F/E/_D/ C/B,/A,/G,/ | %48
 A,/B,/C/=D/ EE- E/ e/d/c/ B/=A/G/^F/ | G>=A ^F>G G2 z G/A/ | =B/c/d/e/ fB z2 z =B/c/ | %51
 d/e/f/g/ _a/f/d/e/ f/d/=B/c/ d/_A/G/F/ | Gced Gc/d/ e/d/e/d/ | c/d/e/f/ g/=a/b/c'/ ^fd z D/=E/ | %54
 ^F/G/=A/B/ cF z2 z ^F/G/ | =A/B/c/d/ e/c/A/B/ c/A/^F/G/ A/E/D/C/ | %56
 B,/=A,/G, d/c/B/=A/ G/D/G/^F/ G z | z2 B/_A/G/F/ E/B,/E/D/ E z | z2 g/f/e/d/ c/G/c/=B/ c z | %59
 z4 z/ c/e/d/ c/B/=A/G/ | FBdc FB/c/ d/c/d/c/ | Bc/d/ e/f/g g=A z2 | =AB/c/ d/e/f fG z2 | %63
 G=A/B/ c/d/e eF z2 | z2 [fb][df] z2 [fb][df] | z2 [fb][df] z2 b/_a/g/f/ | %66
 ee e/4d/4e/4d/4e/4d/4e/4d/4 e/F/E/D/ C/E/F/G/ | F/G/=A/B/ cE z4 | z8 | z8 | FBdc FB/c/ d/c/d/c/ | %71
 Bc/d/ e/f/g gc z2 | E=AcB EA/B/ c/B/c/B/ | =AB/c/ d/e/f fB z2 | %74
 z g/_a/ b/a/b/g/ c/=e/f/g/ a/g/a/f/ | %75
 c/d/=e/f/ g/f/g/e/ g/4f/4g/4f/4g/4f/4g/4f/4 g/4f/4g/4f/4g/4f/4g/4f/4 | %76
 f/B/f/g/ a/g/a/f/ g/f/=e/d/ cc | c c'2 b- b/a/g/f/ g/_d/c/B/ | %78
 A/F/B/F/ A/F/G/F/ A/F/_d/F/ c/F/B/F/ | c/F/B/F/ A/F/G/F/ A/G/F/G/ A/B/c/_d/ | %80
 =E/c/F/c/ G/c/F/c/ E/C/B,/G,/ A,/C/F/A/ | _d/B/G/=E/ F/A/=B/=d/ f/d/=e/g/ c/_B/A/G/ | %82
 A/F/C/A,/ C/F/A/G/ A/F/C/A,/ C/F/A/G/ | A/F/D/B,/ D/F/A/F/ G/E/B,/G,/ B,/E/G/E/ | %84
 F/D/=A,/F,/ A,/D/F/E/ F/C/A,/F,/ A,/C/F/E/ | F/D/=B,/G,/ B,/D/F/D/ E/C/G,/C/ E/G/A/G/ | %86
 F/D/B,/D/ F/A/B/A/ G/E/C/E/ G/B/c/B/ | A/F/C/F/ A/c/d/c/ =B/F/D/F/ B/d/e/d/ | %88
 c/G/E/F/ G/c/F/c/ E/C/G,/=B,/ C/G,/C/G,/ | EGcf f/d/B/d/ F/B/c/B/ | %90
 A/F/D/E/ F/A/E/A/ E/B/F/=A/ B/F/B/F/ | DFBe e/c/_A/c/ e/a/b/a/ | %92
 f c'/b/ a/g/f/=e/ f/_d/c/B/ A/G/F/=E/ | F a/g/ f/e/_d/c/ d/B/A/G/ F/E/_D/C/ | %94
 _D/E/F/G/ AA- A/ a/ g/f/ e/=d/c/=B/ | c>d =B>c c2 z D/=E/ | ^F/G/=A/B/ cF z2 z ^F/G/ | %97
 =A/B/c/d/ e/c/A/B/ c/A/^F/G/ AD | Gdfe Gd/e/ f/e/f/e/ | d/c/d/e/ f/g/a =BG z G/=A/ | %100
 =B/c/d/e/ fB z2 z =B/c/ | d/e/f/g/ a/f/e/f/ f/d/=B/c/ d/A/G/F/ | Gced Gc/d/ e/d/e/d/ | %103
 cd/e/ f/g/a ad z2 | FBdc FB/c/ d/c/d/c/ | Bc/d/ e/f/g gc z2 | %106
 c'/b/a/g/ ff f/4e/4f/4e/4f/4e/4f/4e/4 f/c/f/g/ | a/g/f/e/ _dd d/4c/4d/4c/4d/4c/4d/4c/4 d/A/d/e/ | %108
 f/g/a/g/ f/e/=d/c/ =B gcf | e>d d>c !fermata!c4 |[M:12/8] z12 |[Q:1/4=72]"^Adagio" z12 | z12 | %113
 f/4e/4f/4e/4f/4e/4f/4e/4f/4e/4f/4e/4 f/g/f/e/f/4e/4f/4g/4 =A3- A/G/A/B/c/d/ | %114
 e/g/f/4e/4d/4e/4c'/4b/4c'/- c'/b/=a/g/f/e/ d/f/g/_a/b/4a/4b/ b/4c'/4_d'/c'/b/a/g/ | %115
 a z/ z z4 G/c/d/e/4d/4e/- e/4f/4g/f/e/d/4e/4d/4c/4 | =B/d/c/B/=A/G/ g z/ z2 a/g/f/e/d/ d' z2 | %117
 z4 z2 g/4f/4g/4f/4g/4f/4g/4f/4g/4f/4g/4f/4 g/a/g/f/g/4f/4g/4a/4 | %118
 =B3- B/=A/B/c/d/e/ f/a/g/4f/4e/4f/4d'/4c'/4d'/- d'/c'/=b/=a/g/f/ | %119
 e/4d/4e/4d/4e/4d/4e/4d/4e/4d/4e/4d/4 e/f/e/d/e/4d/4e/4f/4 d/4c/4d/4c/4d/4c/4d/4c/4d/4c/4d/4c/4 d/e/d/c/d/4c/4d/4e/4 | %120
 f/a/g/f/g/4f/4g/4a/4 d/4c/4d/4c/4d/4c/4d/4c/4d/4c/4d/4c/4 c/d/c/=B/c/d/ c/4B/4c/4B/4c/4B/4c/4B/4c | %121
 c3 z2 e- e/c/f/g/=a/b/ c'/d'/c'/b/c'/4b/4c'/4a/4 | fFB d f2- f/B/e/f/g/a/ b/c'/b/a/b/4a/4b/4g/4 | %123
 e/f/e/d/e/4d/4e/4c/4 =A/c/B/A/G/F/ g/4f/4g/4f/4g/4f/4g/4f/4g/4f/4g/4f/4 g/4f/4g/4f/4B/A/B/g/ | %124
 =A z z2 z8 | z12 | c3- c/_d/c/B/c/4B/4c/4d/4 =E3- E/D/E/F/G/A/ | %127
 B/c/4_d/4c/4B/4A/4B/4g/4f/4g/- g/f/=e/4f/4g/c/4d/4c/4B/4 A2 z4 | %128
 z/ G/=A/B/c/4B/4c/ c/4d/4e/d/c/B/A/ B2 z4 | %129
 d/4c/4d/4c/4d/4c/4d/4c/4d/4c/4d/4c/4 d/e/d/c/d/4c/4d/4e/4 ^F3- F/=E/F/G/=A/B/ | %130
 c/d/4e/4d/4c/4B/4c/4 =a/4 g/4a/- a/g/^f/4g/4a/d/4e/4d/4c/4 B/d/c/B/=A/G/ g z2 | %131
 z/ =a/g/^f/=e/d/ d'/4c'/4d'/ z z2 =Ac _eb<a- | %132
 a/b/=a/g/a/4g/4a/4b/4 g3- g/a/g/^f/g/4f/4g/4a/4 B3- | %133
 B/c/B/=A/B/c/ d/e/d/c/d/e/ B3- B/4A/4B/4A/4B/4A/4B/4A/4B/4A/4G/4A/4 | G2 z2 z8 | %135
 z z4 G- G/B/=A/G/A/B/ c/d/c/B/c/d/ | e/f/e/d/e/f/ g/ z/ f/ z/ e/ z/ dfa B2 z | %137
 z z4 F- F/A/G/F/G/A/ B/c/B/A/B/c/ | _d/e/d/c/d/e/ f/ z/ e/ z/ d/ z/ c3- c/d/c/B/c/4B/4c/4A/4 | %139
 B3- B/c/B/A/B/4A/4B/4G/4 c3- c/d/e/d/e/f/ | B3- B/c/B/A/B/4A/4B/4c/4 D3- D/C/D/E/F/G/ | %141
 A/c/B/4A/4G/4A/4f/4e/4f/- f/e/d/c/B/A/ G/B/A/G/F/E/ e z2 | z/ f/e/d/c/B/ b/4a/4b z/ z2 FA c f2- | %143
 f/g/f/e/f/4e/4f/4g/4 e3- e/f/e/d/e/4d/4e/4f/4 G3- | %144
 G/A/G/F/G/4F/4G/4A/4 B/c/B/A/B/4A/4B/4c/4 G3- G/4F/4G/4F/4G/4F/4G/4F/4G/4F/4E/4F/4 | %145
 E3- E/f/e/d/e/g/ g/c/- c3- c/=B/c/e/ | A3- A/B/A/G/A/c/ ^F3 z z2 | z2 z ^f3 !fermata!g6 | %148
[M:2/4][Q:1/4=132]"^Allegro" z2 z c | GcFc | E/D/E/D/ C e | d g2 c | =B/=A/B/A/ G/A/B/G/ | cGdG | %154
 fe- e/c/d/=e/ | fc gc | ba>ga/f/ | c/=B/c/d/ =e/f/g/a/ | b/g/a/f/ c/f/a/f/ | c/=B/c/d/ =e/f/g/a/ | %160
 b/g/a/f/ c/f/a/f/ | B/=A/B/c/ d/e/f/g/ | a/f/g/e/ B/e/g/e/ | B/=A/B/c/ d/e/f/g/ | %164
 a/f/g/e/ B/e/g/e/ | f2 f2 | f2- f/e/d/f/ | e/d/e- e/d/e- | e/c/ e2 d/c/ | =BdFd | E/D/E/D/ Ce/f/ | %171
 gcG=B | c2 z C/D/ | E/F/E/F/ D/E/D/E/ | CGe c | GcFd | E/D/E/D/ C/D/E/F/ | G/A/G/A/ F/G/F/G/ | %178
 EBg^d | BeAf | G/F/G/F/ E/G/B/_d/ | c/e/f/g/ a/f/d/c/ | B/d/e/f/ g/e/d/c/ | =B/c/d/e/ f/d/B/=A/ | %184
 G/=B/c/d/ e/c/=A/_B/ | c/d/c/d/ B/c/B/c/ | =A/B/A/B/ c/d/B/c/ | =A/B/A/B/ G/A/G/A/ | %188
 ^F/=E/F/E/ D g | dgcg | B/=A/B/A/ Gb | =a d'2 g | ^f/=e/f/e/ d/c/B/=A/ | B/d/B/G/ ^F/=A/F/D/ | %194
 G/B/G/D/ =A/c/A/D/ | DG =A/B/c/A/ | B/=A/B/A/ G/F/E/D/ | E/G/E/C/ =B,/D/B,/G,/ | %198
 C/E/C/G,/ D/F/D/G,/ | Gc d/e/f/d/ | e/d/e/d/ c/d/e/c/ | G/^F/G/=A/ =B/c/d/e/ | f/d/e/c/ G/c/e/c/ | %203
 d=B/c/ dg- | gc eg | F/=E/F/G/ =A/B/c/d/ | e/c/d/B/ F/B/d/B/ | c=A/B/ cf- | fBdG | c2 c2 | %210
 c2- c/B/=A/c/ | B/=A/B- B/A/B- | B/G/ B2 =A/G/ | ^F=Ac=a | B/=A/B/A/ G/A/B/c/ | dGD^F | %216
 G/D/=E/^F/ G/=A/B/c/ | (6:4:6d/g/=a/b/a/g/ (6:4:6d/g/a/b/a/g/ | %218
 (6:4:6d/^f/g/=a/g/^f/ (6:4:6d/f/g/a/g/^f/ | (6:4:6d/g/=a/b/a/g/ (6:4:6d/g/a/b/a/g/ | %220
 (6:4:6d/^f/g/=a/g/^f/ (6:4:6d/f/g/a/g/^f/ | (6:4:6d/g/=a/b/a/g/ (6:4:6e/g/a/b/a/g/ | %222
 (6:4:6e/=a/b/c'/b/a/ (6:4:6f/a/b/c'/b/a/ | (6:4:6f/b/c'/d'/c'/b/ (6:4:6g/b/c'/d'/c'/b/ | %224
 (6:4:6f/=a/b/c'/b/a/ (6:4:6f/a/b/c'/b/a/ | d'/f/d'/f/ z2 | d'/f/d'/f/ z2 | c'/e/c'/e/ z2 | %228
 c'/e/c'/e/ z2 | (6:4:6d/b/c'/d'/c'/b/ f/b/d/b/ | (6:4:6=e/b/c'/_d'/c'/b/ =e/d'/c'/b/ | %231
 (6:4:6_a/f/g/a/g/f/ _d'/=e/f/=B/ | c/=e/g/b/ a>g | a/b/a/b/ g/a/g/a/ | fcAa | g c'2 f | %236
 =e/d/e/d/ cg | a/b/a/b/ g/a/g/a/ | f/g/f/g/ e/f/e/f/ | d/e/d/e/ f/g/f/g/ | B/c/B/c/ dB | g4- | %242
 g4- | g4- | g4 | f/g/f/g/ e/f/e/f/ | d/e/d/e/ c/d/c/d/ | =B/c/B/c/ d/e/d/e/ | G/=A/G/A/ =Bd | %249
 GcFd | E/D/E/D/ C2- | C c2 =B | c/d/c/d/ ed/c/ | BeAf | G/F/G/F/ E2- | E e2 d | e2 z e | %257
 E/D/E/F/ G/A/B/c/ | _d/B/c/A/ E/A/c/A/ | BG/A/ Be- | eAce | F/=E/F/G/ =A/B/c/d/ | %262
 e/c/d/B/ F/B/d/B/ | c=A/B/ cf- | fB df | G/^F/G/=A/ =B/c/d/e/ | f/d/e/c/ G/c/e/c/ | d=B/c/ dg- | %268
 gceg | f2 f2 | f2- f/e/d/f/ | e/d/e- e/d/e- | e/c/ e2 d/c/ | %273
 (6:4:6=B/D/E/F/E/D/ (6:4:6G,/D/E/F/E/D/ | (6:4:6=B/D/E/F/E/D/ (6:4:6G,/D/E/F/E/D/ | %275
 (6:4:6c/E/F/G/F/E/ (6:4:6G,/E/F/G/F/E/ | (6:4:6c/E/F/G/F/E/ (6:4:6G,/E/F/G/F/E/ | %277
 (6:4:6d/F/G/A/G/F/ (6:4:6G,/F/G/A/G/F/ | (6:4:6d/F/G/A/G/F/ (6:4:6G,/F/G/A/G/F/ | %279
 (6:4:6d/E/F/G/F/E/ (6:4:6G,/E/F/G/F/E/ | (6:4:6c/E/F/G/F/E/ (6:4:6G,/E/F/G/F/E/ | %281
 (6:4:6c/D/E/F/E/D/ (6:4:6G,/D/E/F/E/D/ | (6:4:6=B/D/E/F/E/D/ (6:4:6G,/D/E/F/E/D/ | EcFc | %284
 E/D/E/D/ Ce | d g2 c | =B/=A/B/A/ G/F/E/D/ | E/G/E/C/ =B,/D/B,/G,/ | C/E/C/G,/ D/F/D/G,/ | %289
 G/d/e/c/ d/e/f/=B/ | c2- c/d/B/c/ | A/c/A/F/ =E/G/E/C/ | F/A/F/C/ G/B/G/C/ | c/g/a/f/ g/a/b/=e/ | %294
 f/g/a/b/ a/g/^e/^d/ | _d/f/b/c'/ _d'/b/g/f/ | e/g/a/b/ c'/a/g/f/ | =e/f/g/a/ b/g/e/d/ | %298
 c/=e/f/g/ a/f/d/_e/ | f/g/f/g/ e/f/e/f/ | d/e/d/e/ f/g/e/f/ | d/e/d/e/ c/d/c/d/ | =B/=A/B/A/ Gc | %303
 Gc Fc | E/G,/C/D/ E/G/c/e/ | d g2 c | =B/=A/B/A/ G/A/B/G/ | cGdG | fe- e/c/d/=e/ | fcgc | %310
 ba- a/g/a/f/ | c/=B/c/d/ =e/f/g/a/ | b/g/a/f/ c/f/a/f/ | c/=B/c/d/ =e/f/g/a/ | b/g/a/f/ c/f/a/f/ | %315
 B/=A/B/c/ d/e/f/g/ | a/f/g/e/ B/e/g/e/ | B/=A/B/c/ d/e/f/g/ | a/f/g/e/ B/e/g/e/ | f2 f2 | %320
 f2- f/e/d/f/ | e/d/e- e/d/e- | e/c/ e2 d/c/ | =BdFd | E/D/E/D/ Ce/f/ | gcG[FG=B] | [EGc]2 z z |] %327
V:2
 E2 GF E/D/E/F/ G/F/G/F/ | E x x2 x4 | D2 FE D/C/D/E/ F/E/F/E/ | [B,D] x x2 x4 | x8 | x8 | %6
 x4 x2 x c | c2 =B2 [EG]2 x2 | x8 | x8 | x8 | x8 | E2 GF E/D/E/F/ G/F/G/F/ | [CE] z x2 x4 | x8 | %15
 D2 FE D/C/D/E/ F/E/F/E/ | [B,D] z x2 x2 x2 | x8 | x8 | x8 | x8 | x8 | G2 BA G/F/G/A/ B/A/B/A/ | %23
 G x x2 x4 | x8 | x8 | x2 [GB][EG] x2 [GB][EG] | z2 [GB][EG] x4 | x8 | x8 | x8 | x8 | %32
 G,2[I:staff +1] B,A, G,/F,/G,/A,/ B,/A,/B,/A,/ |[I:staff -1] G, x x2 x4 | %34
[I:staff +1] F,2 A,G, F,/E,/F,/G,/ A,/G,/A,/G,/ |[I:staff -1] A, x x2 x4 | x8 | x8 | x8 | x8 | x8 | %41
 x8 | x8 | x8 | x8 | x8 | x8 | x8 | x8 | x8 | x8 | x8 | x2 GF E/D/E/F/ G/F/G/F/ | [CE] x x2 x4 | %54
 x8 | x8 | x8 | x8 | x8 | x8 | D2 FE D/C/D/E/ F/E/F/E/ | [B,D] x x2 x4 | x6 x2 | x6 x2 | %64
 z2 dB x2 d B | z2 dB x4 | x8 | x8 | x8 | x8 | D2 FE D/C/D/E/ F/E/F/E/ | [B,D] x x2 x4 | %72
 x2 ED C/B,/C/D/ E/D/E/D/ | E x x2 x4 | x8 | x8 | x8 | x8 | x8 | x8 | x8 | x8 | x8 | x8 | x8 | x8 | %86
 x8 | x8 | x8 | x8 | x8 | x8 | x8 | x8 | x8 | x8 | x8 | x8 | x2 AG x4 | x8 | x8 | x8 | %102
 E2 GF E/D/E/F/ G/F/G/F/ | E z x2 x4 | D2 FE D/C/D/E/ F/E/F/E/ | [B,D] z x2 x4 | x8 | x8 | %108
 x4 x2 x c | c>d =B2 [EG]4 |[M:12/8] x12 | x12 | x12 | x12 | x12 | x12 | x12 | x12 | x12 | x12 | %120
 x12 | x12 | x12 | x12 | x12 | x12 | x12 | x12 | x12 | x12 | x12 | x12 | x12 | x12 | x12 | x12 | %136
 x12 | x12 | x12 | x12 | x12 | x12 | x12 | x12 | x12 | x12 | x12 | %147
 x3 d/4c/4d/4c/4d/4c/4d/4c/4d/4c/4d/4c/4 d/4c/4d/4c/4d/4c/4=B/4=A/4 !fermata!B4 |[M:2/4] x4 | x4 | %150
 x4 | x4 | x4 | x4 | [Gc]2 x2 | x4 | [cf]2 x2 | x4 | x4 | x4 | x4 | x4 | x4 | x4 | x4 | x4 | x4 | %167
 x4 | x4 | x4 | x4 | x4 | x4 | x4 | x4 | x4 | x4 | x4 | x4 | x4 | x4 | x4 | x4 | x4 | x4 | x4 | %186
 x4 | x4 | x4 | x4 | x4 | x4 | x4 | x4 | x4 | x4 | x4 | x4 | x4 | x4 | x4 | x4 | x4 | x4 | x4 | %205
 x4 | x4 | x4 | x4 | x4 | x4 | x4 | x4 | x4 | x4 | x4 | x4 | x4 | x4 | x4 | x4 | x4 | x4 | x4 | %224
 x4 | z2 A/f/A/f/ | z2 G/f/G/f/ | z2 G/e/G/e/ | z2 =A/e/A/e/ | x4 | x4 | x4 | x4 | x4 | x4 | x4 | %236
 x4 | x4 | x4 | x4 | x4 | x4 | x4 | x4 | x4 | x4 | x4 | x4 | x4 | x4 | x4 | x4 | x4 | x4 | x4 | %255
 x4 | x4 | x4 | x4 | x4 | x4 | x4 | x4 | x4 | x4 | x4 | x4 | x4 | x4 | x4 | x4 | x4 | x4 | x4 | %274
 x4 | x4 | x4 | x4 | x4 | x4 | x4 | x4 | x4 | x4 | x4 | x4 | x4 | x4 | x4 | x4 | x4 | x4 | x4 | %293
 x4 | x4 | x4 | x4 | x4 | x4 | x4 | x4 | x4 | x4 | x4 | x4 | x4 | x4 | x4 | [Gc]2 x2 | x4 | %310
 [cf]2 x2 | x4 | x4 | x4 | x4 | x4 | x4 | x4 | x4 | x4 | x4 | x4 | x4 | x4 | x4 | x2 x D | C2 z2 |] %327
V:3
 [G,C]2 z2 x4 | [E,G,] x x2 x4 | [F,B,]2 z2 x4 | [D,F,] x x2 x4 | A, C/B,/ A,C/B,/ A,C/B,/ A,G, | %5
 F, A,/G,/ F,A,/G,/ F,A,/G,/ F,E, | _D,/C,/=B,,/C,/ =D,/E,/F,- F, C/=B,/ CA, | %7
 G,F,G,G,, C,/E,/F,/G,/ C, z | z/ C/=B,/C/ C, z z/ C/B,/C/ C, z | %9
 z/ C/=B,/C/ C, z z C,/=B,,/ C,/D,/E,/F,/ | G, z z/ G,/^F,/G,/ G,, z z/ G,/F,/G,/ | %11
 D z z/ C/E/^F/ GG, z/ G,,/=A,,/=B,,/ | [G,C]2 z2 x4 | [E,G,] x x2 x4 | B,,C,D,E, F,G,F,E, | %15
 [F,B,]2 z2 x4 | [D,F,] x x2 x4 | C,D,E,F, G,A,G,G,, | A,,C/B,/ A,/G,/F,/E,/ D, DEF | %19
 G/C/B,/A,/ G,/F,/E,/D,/ C, CDE | FB, z2 z4 | z4 z B,,C,D, | B,2 z2 x4 | [G,B,] x x2 x4 | %24
 FDB,G, E,E z/ F/E/D/ | ECA,F, D,D z/ C/B,/A,/ | G,2 z2 A,2 z2 | B,2 z2 C/D/E/D/ C/D/E/D/ | %28
 C/D/E/D/ C/E/D/C/ B,/G,/F,/E,/ D,/E,/F,/E,/ | D,/E,/F,/E,/ D,/F,/D,/B,,/ E, z z2 | z8 | z8 | %32
 [B,,E,]2 z2 x4 | [B,,E,] x x2 x4 | D,2 z2 x4 | F, x x2 x4 | C,C z2 B,,B, z2 | %37
 =A,,C, F,F,, B,,B, z2 | =A,,=A, z2 G,,G, z2 | ^F,,=A,, D,D,, G,,G, z2 | =A,,=A, z2 B,,B, z2 | %41
 C,C z2 D,^F,/=A,/ D z | z2 B,C z2 B,G, | z G,E,C, F,=A,/C/ F z | z2 =A,B, z2 =A,F, | %45
 z F,D,B,, E,G,/B,/ E z | z C,E,G, CC, z2 | z C,E,_A, CC, z2 | z G,,C,E, =A,, ^F,G,E, | %49
 D,C,D,D,, G,,2 z2 | z D=B,G, D,G,D,F, | G,,G, D,F, =B,,D, G,,B,, | G, z z2 x4 | [E,G,] x x2 x4 | %54
 z =A,^F,D, =A,,D,A,,C, | D,,D =A,C ^F,A, D,F, | %56
 G,, D,/C,/ B,,/C,/D,/C,/ B,,/C,/D,/C,/ B,,/C,/D,/C,/ | %57
 B,,/C,/B,,/_A,,/ B,,/C,/B,,/A,,/ G,,/A,,/B,,/A,,/ G,,/A,,/B,,/A,,/ | %58
 G,,/A,,/G,,/F,,/ E,,/F,,/G,,/F,,/ E,,/F,,/G,,/F,,/ E,, z | z4 z =A,B,C | [F,B,]2 z2 x4 | %61
 F, x x2 x2 z/ D/C/B,/ | C=A,F,D, B,,B, z/ C/B,/A,/ | B,G,E,C, =A,,=A, z/ G,/F,/E,/ | %64
 z2 D,2 z2 E,2 | F,2 z2 G,/_A,/B,/A,/ G,/A,/B,/A,/ | %66
 G,/_A,/B,/A,/ G,/B,/=A,/G,/ F,/D,/C,/B,,/ =A,,/B,,/A,,/G,,/ | %67
 =A,,/B,,/C,/B,,/ A,,/C,/A,,/F,,/ B,, z z2 | z8 | z8 | [F,B,]2 z2 x4 | F, x x2 x4 | [=A,C]2 z2 x4 | %73
 C x x2 x4 | G,G,, z2 _A,_A,, z2 | B,B,, z2 A,/B,/C/B,/ A,/G,/F,/_E,/ | C,D/=E/ FF, CG,/F,/ =E,C, | %77
 F,/^E,/F,/A,/ _D/C/D/B,/ G,C/=D/ =E=E, | z/ F,/=E,/F,/ F,, z z/ F,/E,/F,/ F,, z | %79
 z/ F,/=E,/F,/ F,, z z F,/E,/ F,/G,/A,/B,/ | C2 z/ C/=B,/C/ C, z z/ C,/=B,,/C,/ | %81
 G, z z/ F,/A,/=B,/ CC, z/ C,/D,/=E,/ | F,F,, z2 E,E,, z2 | D,F,B,B,, E,E,, z2 | %84
 D,D,, z2 C,C,, z2 | =B,,D,G,G,, C,C,, z2 | D,D,, z2 E,E,, z2 | F,F,, z2 G,,=B,,/D,/ G, z | %88
 z2 E,F, z2 E,C, | z C,A,,E,, B,,D,/F,/ B, z | z2 D,E, z2 D,B,, | z B,,G,,E,, =A,,C,/E,/ A, z | %92
 z F,A,C FF, z2 | z F,A,_D FF, z2 | z C,F,A, =D, =B,CB, | G,F,G,G,, D,D,, z2 | %96
 z =A,^F,D, =A,,D, A,,C, | D,,D =A,C ^F,A, D,F, | %98
 G,,/G,/=F,/E,/ D,/=B,/E,/C/ F,/B,/F,/E,/ D,/G,/C,/C/ | G,/G/F/E/ D/C/=B,/C/ D/C/B,/=A,/ G, z | %100
 z D=B,G, D,G, D,F, | G,,G, D,F, =B,,D, G,,B,, | G,2 z2 x4 | [E,G,] x x2 x4 | [F,B,]2 z2 x4 | %105
 [D,F,] x x2 x4 | A, C/B,/ A,C/B,/ A,C/B,/ A,G, | F, A,/G,/ F,A,/G,/ F,A,/G,/ F,E, | %108
 _D,/C,/=B,,/C,/ =D,/E,/F,- F, C/=B,/ CA, | G,F,G,G,, !fermata![C,E,G,]4 |[M:12/8] z12 | z12 | %112
 z12 | B,/=A,/B,/F,/C/F,/ DD,E, F,/A,/C/F/E/D/ EE,D, | C,CB, =A,F,A, B,B,,A,, G,,=E,C, | %115
 F, z2 z4 C,B,, A,,A,F, | G,2 z/ z F/E/D/E/C/ G z/ z2 E/D/C/=B,/C/ | %117
 A,A z2 G,/=A,/=B,/G,/ C/B,/C/G,/D/G,/ EE,F, | G,/=B,/D/G/F/E/ FF,E, D,DC B,G,B, | %119
 CC,B,, A,,A,G, F,F,,F, G,G,,G, | A,A,,A, G,G,,F,, G,,G,F, G,G,,G, | %121
 C,CB, =A,=A,,G,, F,, A,2- A,/B,/A,/G,/A,/F,/ | B,,B,A, G,G,,F,, E,, G,2- G,/A,/G,/F,/G,/B,/ | %123
 CC,=A,, F,,G,,A,, B,,B,=A, G,/F,/G,C, | F, z z2 z8 | z12 | %126
 F,/=E,/F,/C,/G,/C,/ A,A,,B,, C,/E,/G,/C/B,/A,/ B,B,,A,, | G,,G,F, =E,C,E, F,2 z4 | %128
 z C,B,, =A,,^F,D, G,2 z4 | D,/^F,/=A,/D/C/A,/ B,B,,G,, D,/A,/C/E/D/C/ DCB, | %130
 =A,=A,,G,, ^F,,D,,F,, G,,G,A,, B,,G,,C, | D, z/ z2 =A,/D/=E/^F/G/ =AA, z2 D,/=E,/^F,/D,/ | %132
 G,GF EE,D, C,CC, D,DD, | E,EE, D,DC DD,C, D,DD, | G,2 z2 z8 | %135
 z _DB, G,=E,C, F,,F,G, =A,/B,/A,/G,/A,/B,/ | C/D/C/B,/C/D/ E/F/E/D/E/F/ B,DF A2 z | %137
 z FE DFB, EE,F, G,/A,/G,/F,/G,/A,/ | B,/C/B,/A,/B,/C/ _D/E/D/C/D/E/ A,A,,G,, F,,F,E, | %139
 D,B,,B, E,F,E, A,A,,E, A,3- | A,/G,/F,/G,/A,/F,/ G,G,,A,, B,,/D,/F,/B,/A,/G,/ A,A,,G,, | %141
 F,,F,E, D,B,,D, E,2 z/ z A,/G,/F,/G,/E,/ | B, z/ z2 F,/B,/C/D/E/ FF, z2 B,,/C,/D,/B,,/ | %143
 E,ED CC,B,, A,,A,A,, B,,B,B,, | C,CC, B,,B,A, B,B,,A,, B,,B,B,, | %145
 E,/F,/E,/D,/E,/G,/ F,/A,/G,/F,/G,/B,/ A,A,,G,, A,,A,E, | %146
 C,/B,/A,/G,/A,/E,/ C/_D/C/=B,/C/C,/ D,3 z z2 | %147
 z2 z B/4=A/4B/4A/4B/4A/4B/4A/4B/4A/4B/4A/4 !fermata!A/4G/4A/4G/4A/4G/4^F/4A/4 !fermata!G4 | %148
[M:2/4] z2 z z | z4 | z2 z C | B,/C/B,/C/ ^G,/B,/A,/B,/ | G,D,G,,F, | E,/F,/E,/F,/ D,/E,/D,/E,/ | %154
 C,/D,/C,/D,/ B,,/C,/B,,/C,/ | ^G,,/B,,/A,,/B,,/ =G,,/A,,/G,,/A,,/ | %156
 F,,/=E,,/F,,/G,,/ A,,/B,,/C,/D,/ | =E,G,C,E, | F,F,,A,,C, | =E,G,C,E, | F,F,,A,,C, | D,F,B,,D, | %162
 E,E,,G,,B,, | D,F,B,,D, | E,,E,G,E, | D,A,C,^G, | =B,,/=A,,/B,,/A,,/ G,,/A,,/B,,/G,,/ | %167
 C,G,B,,F, | =A,,/G,,/A,,/G,,/ ^F,,/G,,/A,,/F,,/ | G,,/A,,/G,,/A,,/ G,,/A,,/F,,/G,,/ | %170
 A,,/A,/G,/F,/ E,/A,/G,/F,/ | E,/A,/G,/F,/ G,G,, | C,G,, C,, z | z4 | z2 z C,/D,/ | %175
 E,/D,/E,/C,/ G,/F,/G,/G,,/ | C,G,,C,, z | z4 | z3 E,/F,/ | G,/F,/G,/^D,/ ^A,/^G,/A,/^A,,/ | %180
 ^D,B,,E,,E, | A,/C/A,/C/ D,B, | E/B,/G,/B,/ E,A, | D,/A,/F,/^G,/ =B,,=G, | C/G,/E,/G,/ C,C | %185
 ^F,D, G,/F,/G,/C,/ | D,D^F,G, | D,4- | D,2- D,/E,/C,/D,/ | B,,/C,/B,,/C,/ =A,,/B,,/A,,/B,,/ | %190
 G,,D/C/ B,/=A,/G,/A,/ | F,/G,/F,/G,/ E,/F,/E,/F,/ | D,=A,, D,, z | z4 | z2 z D, | G,B,,C,D, | %196
 G,,D, G, z | z2 z G,, | z2 z G,, | C,E,F,G, | C,G,,C,,C, | =B,,D,G,,B,, | C,G,C G- | %203
 GF/E/ D/C/=B,/=A,/ | G,/=B,/C/G,/ E,/G,/C,/E,/ | =A,,C,F,,A,, | B,,F,B, F- | FE/D/ C/B,/=A,/G,/ | %208
 F,/=A,/B,/F,/ D,/F,/E,/G,/ | C,EG,^D | ^F,/=E,/F,/E,/ D,/E,/F,/D,/ | G,,D F,D | %212
 =E,/D,/E,/D,/ ^C,/D,/E,/C,/ | D,/E,/D,/E,/ D,/E,/C,/D,/ | E,D,/C,/ B,,/E,/D,/C,/ | %215
 B,,/E,/D,/C,/ D,D,, | G,,-G,,/D,/ =E,/^F,/G,/=A,/ | B,G,B,G, | D2 z C | B,DG,D | %220
 ^F,/=E,/F,/E,/ D, z | z G,,G,E, | =A,2 z F, | D,F,B,,D, | =A,,/G,,/A,,/G,,/ F,, z | x4 | x4 | x4 | %228
 x4 | z B,,D,B,, | z G,, C,C,, | z F,, B,,_D, | z/ C,/=E,/G,/ C/C,/D,/E,/ | F, F2 =E | %234
 F/=E/F/C/ F,/G,/F,/G,/ | E,/^E,/^D,/E,/ _D,/_E,/D,/E,/ | C,G,, C,,/C,/=E,/C,/ | %237
 F,/G,/F,/G,/ E,/F,/E,/F,/ | D,/E,/D,/E,/ C,/D,/C,/D,/ | B,, z A,, z | G,, z ^E,, z | %241
 E,/F,/E,/F,/ D,/E,/D,/E,/ | C,/D,/C,/D,/ B,,/C,/B,,/C,/ | A,, z G,, z | F,, z E,, z | %245
 D,/E,/D,/E,/ C,/D,/C,/D,/ | =B,,/C,/B,,/C,/ =A,,/B,,/A,,/B,,/ | G,, z F,, z | E,, z D,, z | %249
 C,, z z2 | z C,/=B,,/ C,/D,/C,/D,/ | E,/D,/E,/C,/ G,/F,/G,/G,,/ | C,G,,C,, z | z4 | %254
 z E,/D,/ E,/F,/E,/F,/ | G,/F,/G,/E,/ B,/A,/B,/B,,/ | E,B,, E,,/D,,/E,,/F,,/ | G,,B,,E,,G,, | %258
 A,,E,A,E- | E_D/C/ B,/A,/G,/F,/ | E,/G,/B,/E,/ C,/E,/A,,/G,,/ | =A,,C,F,,A,, | B,,F,B,F- | %263
 FE/D/ C/B,/=A,/G,/ | F,/=A,/B,/F,/ D,/F,/B,,/=A,,/ | =B,,D,G,,B,, | C,G,CG- | GF/E/ D/C/=B,/=A,/ | %268
 G,/=B,/C/G,/ E,/G,/C,/E,/ | D,A,C,^G, | =B,,/=A,,/B,,/A,,/ G,,/A,,/B,,/G,,/ | C,G,B,,G, | %272
 =A,,/G,,/A,,/G,,/ ^F,,/G,,/A,,/F,,/ | G,, z G, z | G,, z G, z | G,, z G, z | G,, z G, z | %277
 G,, z G, z | G,, z G, z | G,, z G, z | G,, z G, z | G,, z G, z | G,, z G, z | C, z2 z | z2 z C | %285
 B,/C/B,/C/ ^G,/B,/A,/B,/ | G,D, G,, z | z4 | z2 z G,, | C,E,,F,,G,, | C,,G,, C, z | z4 | z2 z C, | %293
 F,A,,B,,C, | F,,C,F,F,, | B,,/_D,/F,/A,/ G,E | A/E/C/E/ A,_D | G,/^C/^A,/C/ =E,=C | %298
 F/C/A,/C/ F,F | =B,G, C/B,/C/F,/ | G,G=B,C | G,4- | G,2- G,/A,/F,/G,/ | %303
 E,/F,/E,/F,/ D,/E,/D,/E,/ | C,G,CC, | B,,/C,/B,,/C,/ ^G,,/B,,/A,,/B,,/ | G,,D, G,F, | %307
 E,/F,/E,/F,/ D,/E,/D,/E,/ | C,/D,/C,/D,/ B,,/C,/B,,/C,/ | ^G,,/B,,/A,,/B,,/ =G,,/A,,/G,,/A,,/ | %310
 F,,/=E,,/F,,/G,,/ A,,/B,,/C,/D,/ | =E,G,C,E, | F,F,,A,,C, | =E,G,C,E, | F,F,,A,,C, | D,F,B,,D, | %316
 E,E,,G,,B,, | D,F,B,,D, | E,,E,G,E, | D,A,C,^G, | =B,,/=A,,/B,,/A,,/ G,,/A,,/B,,/G,,/ | %321
 C,G,B,,F, | =A,,/G,,/A,,/G,,/ ^F,,/G,,/A,,/F,,/ | G,,/A,,/G,,/A,,/ G,,/A,,/F,,/G,,/ | %324
 A,,/A,/G,/F,/ E,/A,/G,/F,/ | E,/A,/G,/F,/ G,G,, | [C,,C,]2 z2 |] %327
V:4
 [C,E,]2 z2 C2 z2 | C,CA,F, B,,B, z2 | [B,,D,]2 z2 B,2 z2 | B,,B,G,E, A,,A, z2 | x8 | x8 | %6
 x4 x E,A,F, | x8 | x8 | x8 | x8 | x8 | [C,E,]2 z2 C2 z2 | C,CA,F, B,B,, z2 | x8 | %15
 [B,,D,]2 z2 B,2 z2 | B,,B,G,E, A,A,, z2 | x8 | x8 | x8 | x8 | x8 | [E,G,]2 z2 E2 z2 | %23
 E,ECA, F,F z/ G/F/E/ | x8 | x8 | x8 | x8 | x8 | x8 | x8 | x8 | [E,,G,,]2 z2 E,2 z2 | %33
 E,,E,C,A,, D,D,, z2 | B,,2 z2 [B,,D,]2 z2 | B,,CB,A, G,G,, z2 | x8 | x8 | x8 | x8 | x8 | x8 | %42
 z2 G,=A, x4 | x8 | z2 F,G, x4 | x8 | x8 | x8 | x8 | x8 | x8 | x8 | C, z z2 C z z2 | %53
 C,D,E,C, D,D,, z2 | x8 | x8 | x8 | x8 | x8 | z4 z F,G,=A, | [B,,D,]2 z2 B,2 z2 | %61
 B,,B,G,E, C,C x z | x8 | x8 | x8 | x8 | x8 | x8 | x8 | x8 | [B,,D,]2 z2 B,2 z2 | %71
 B,,B,G,E, =A,=A,, z2 | F,2 z2 F,2 z2 | F,A,F,E, D,D,, z2 | x8 | x8 | x8 | x8 | x8 | x8 | x8 | x8 | %82
 x8 | x8 | x8 | x8 | x8 | x8 | z2 C,D, x4 | x8 | z2 B,,C, x4 | x8 | x8 | x8 | x8 | x8 | x8 | x8 | %98
 x8 | x8 | x8 | x8 | [C,E,]2 z2 C2 z2 | C,CA,F, B,B,, z2 | [B,,D,]2 z2 B,2 z2 | %105
 B,,B,G,E, A,,A, z2 | x8 | x8 | x4 z E,A,F, | x8 |[M:12/8] x12 | x12 | x12 | x12 | x12 | x12 | %116
 x12 | x12 | x12 | x12 | x12 | x12 | x12 | x12 | x12 | x12 | x12 | x12 | x12 | x12 | x12 | x12 | %132
 x12 | x12 | x12 | x12 | x12 | x12 | x12 | x12 | x12 | x12 | x12 | x12 | x12 | x12 | x12 | %147
 x3 D3 [G,D]6 |[M:2/4] x4 | x4 | x4 | x4 | x4 | x4 | x4 | x4 | x4 | x4 | x4 | x4 | x4 | x4 | x4 | %163
 x4 | x4 | x4 | x4 | x4 | x4 | x4 | x4 | x4 | x4 | x4 | x4 | x4 | x4 | x4 | x4 | x4 | x4 | x4 | %182
 x4 | x4 | x4 | x4 | x4 | x4 | x4 | x4 | x4 | x4 | x4 | x4 | x4 | x4 | x4 | x4 | x4 | x4 | x4 | %201
 x4 | x4 | x4 | x4 | x4 | x4 | x4 | x4 | x4 | x4 | x4 | x4 | x4 | x4 | x4 | x4 | x4 | x4 | x4 | %220
 x4 | x4 | x4 | x4 | x4 | x4 | x4 | x4 | x4 | x4 | x4 | x4 | x4 | x4 | x4 | x4 | x4 | x4 | x4 | %239
 x4 | x4 | x4 | x4 | x4 | x4 | x4 | x4 | x4 | x4 | x4 | x4 | x4 | x4 | x4 | x4 | x4 | x4 | x4 | %258
 x4 | x4 | x4 | x4 | x4 | x4 | x4 | x4 | x4 | x4 | x4 | x4 | x4 | x4 | x4 | x4 | x4 | x4 | x4 | %277
 x4 | x4 | x4 | x4 | x4 | x4 | x4 | x4 | x4 | x4 | x4 | x4 | x4 | x4 | x4 | x4 | x4 | x4 | x4 | %296
 x4 | x4 | x4 | x4 | x4 | x4 | x4 | x4 | x4 | x4 | x4 | x4 | x4 | x4 | x4 | x4 | x4 | x4 | x4 | %315
 x4 | x4 | x4 | x4 | x4 | x4 | x4 | x4 | x4 | x4 | x4 | x4 |] %327
V:5
 x8 | x8 | x8 | x8 | x8 | x8 | x8 | x8 | x8 | x8 | x8 | x8 | x8 | x8 | x8 | x8 | x8 | x8 | x8 | %19
 x8 | x8 | x8 | E2 x2 x4 | E x x2 x4 | x8 | x8 | x8 | x8 | x8 | x8 | x8 | x8 | x8 | x8 | x8 | x8 | %36
 x8 | x8 | x8 | x8 | x8 | x8 | x8 | x8 | x8 | x8 | x8 | x8 | x8 | x8 | x8 | x8 | x8 | x8 | x8 | %55
 x8 | x8 | x8 | x8 | x8 | x8 | x8 | x8 | x8 | x8 | x8 | x8 | x8 | x8 | x8 | x8 | x8 | x8 | x8 | %74
 x8 | x8 | x8 | x8 | x8 | x8 | x8 | x8 | x8 | x8 | x8 | x8 | x8 | x8 | x8 | x8 | x8 | x8 | x8 | %93
 x8 | x8 | x8 | x8 | x8 | x8 | x8 | x8 | x8 | x8 | x8 | x8 | x8 | x8 | x8 | x8 | x8 |[M:12/8] x12 | %111
 x12 | x12 | x12 | x12 | x12 | x12 | x12 | x12 | x12 | x12 | x12 | x12 | x12 | x12 | x12 | x12 | %127
 x12 | x12 | x12 | x12 | x12 | x12 | x12 | x12 | x12 | x12 | x12 | x12 | x12 | x12 | x12 | x12 | %143
 x12 | x12 | x12 | x12 | x12 |[M:2/4] x4 | x4 | x4 | x4 | x4 | x4 | x4 | x4 | x4 | x4 | x4 | x4 | %160
 x4 | x4 | x4 | x4 | x4 | x4 | x4 | x4 | x4 | x4 | x4 | x4 | x4 | x4 | x4 | x4 | x4 | x4 | x4 | %179
 x4 | x4 | x4 | x4 | x4 | x4 | x4 | x4 | x4 | x4 | x4 | x4 | x4 | x4 | x4 | x4 | x4 | x4 | x4 | %198
 x4 | x4 | x4 | x4 | x4 | x4 | x4 | x4 | x4 | x4 | x4 | x4 | x4 | x4 | x4 | x4 | x4 | x4 | x4 | %217
 x4 | x4 | x4 | x4 | x4 | x4 | x4 | x4 | x4 | x4 | x4 | x4 | x4 | x4 | x4 | x4 | x4 | x4 | x4 | %236
 x4 | x4 | x4 | x4 | x4 | x4 | x4 | x4 | x4 | x4 | x4 | x4 | x4 | x4 | x4 | x4 | x4 | x4 | x4 | %255
 x4 | x4 | x4 | x4 | x4 | x4 | x4 | x4 | x4 | x4 | x4 | x4 | x4 | x4 | x4 | x4 | x4 | x4 | x4 | %274
 x4 | x4 | x4 | x4 | x4 | x4 | x4 | x4 | x4 | x4 | x4 | x4 | x4 | x4 | x4 | x4 | x4 | x4 | x4 | %293
 x4 | x4 | x4 | x4 | x4 | x4 | x4 | x4 | x4 | x4 | x4 | x4 | x4 | x4 | x4 | x4 | x4 | x4 | x4 | %312
 x4 | x4 | x4 | x4 | x4 | x4 | x4 | x4 | x4 | x4 | x4 | x4 | x4 | x4 | x4 |] %327
V:6
 Gced Gc/d/ e/d/e/d/ | cd/e/ f/g/a ad ad | FBdc FB/c/ d/c/d/c/ | Bc/d/ e/f/g gc gc | %4
 z2 c/B/A/G/ FC z2 | z2 A/G/F/E/ _DA, z _d/e/ | f/g/a/g/ f/e/=d/c/ =B gcf | %7
 e>d e/4d/4e/4d/4d/c/ c/ G/=A/=B/ c/d/e/f/ | gagf gfed | dage g/f/e/d/ c z | defe dage | %11
 =Bfec ed z2 | Gced Gc/d/ e/d/e/d/ | %13
 cd/e/ f/g/a b/4a/4b/4a/4b/4a/4b/4a/4 b/4a/4b/4a/4b/4a/4b/4a/4 | agfe dcB=A | FBdc FB/c/ d/c/d/c/ | %16
 Bc/d/ e/f/g a/4g/4a/4g/4a/4g/4a/4g/4 a/4g/4a/4g/4a/4g/4a/4g/4 | gagf edc=B | %18
 c3 d/e/ f/e/d/c/ B/A/G/F/ | F B2 c/d/ e/d/c/B/ A/G/F/E/ | D/E/F/G/ A/G/A/c/ B/c/d/e/ f/e/f/a/ | %21
 g/b/c'/b/ a/g/f/e/ b/4a/4b/4a/4b/4a/4b/4a/4b/4a/4b/4a/4b/4a/4b/4a/4 | %22
 b/4a/4b/4a/4b/4a/4b/4a/4b/4a/4b/4a/4b/4a/4b/4a/4b/4a/4b/4a/4b/4a/4b/4a/4b/4a/4b/4a/4b/4a/4b/4a/4 | %23
 b2 z e a/g/f/g/ a/b/c' | c'd z d f/e/d/e/ g/a/b | bc z c f/e/d/e/ f/g/a | %26
 Be/f/ g/f/g/f/ e/c/e/f/ g/f/g/f/ | e/B/e/f/ g/f/g/f/ e/d/c/B/ AA | %28
 A2- A/E/A/c/ f/e/d/c/ B/A/G/A/ | A2- A/B/d/f/ g/f/a/g/ c'/b/a/g/ | f/e/d/c/ B/A/G/F/ G eFd | %31
 e/d/c/B/ =A_g- gf/e/ d>e | e2 z2 z4 | z4 z2 cF | z8 | z4 z2 BE | z2 ec z2 eB | z2 e=A z2 dB | %38
 z2 c=A z2 cG | z2 c^F z2 GC | z2 =AC z2 BE | z2 cE z2 c^F | DGB=A DG/A/ B/A/B/A/ | %43
 G=A/B/ c/d/e eA z2 | CF=AG CF/G/ A/G/A/G/ | FG/=A/ B/c/d dG z2 | g/f/e/d/ cc c/d/c/d/ c/G/c/d/ | %47
 e/d/c/B/ AA B/4A/4B/4A/4B/4A/4B/4A/4 A/E/A/B/ | c/d/e/d/ c/B/=A/G/ ^F dGc | %49
 B>=A A>G G/A/=B/c/ d/e/f | f_B z2 B/c/d/e/ f/g/_a | ad f=B dF/A/ G/F/E/D/ | C z z2 z4 | %53
 z4 D/=E/^F/G/ =A/B/c | c^F z2 F/G/=A/B/ c/d/e | e=A c^F AC/E/ D/C/B,/=A,/ | %56
 d/c/B/=A/ GG G/4F/4G/4F/4G/4F/4G/4F/4 G/D/G/A/ | B/=A/G/F/ EE E/4D/4E/4D/4E/4D/4E/4D/4 E/B/e/f/ | %58
 g/f/e/d/ cc c/4B/4c/4B/4c/4B/4c/4B/4 c/G/c/d/ | %59
 e/f/g/f/ e/d/c/B/ f/4e/4f/4e/4f/4e/4f/4e/4 f/4e/4f/4e/4f/4e/4f/4e/4 | %60
 f/4e/4f/4e/4f/4e/4f/4e/4f/4e/4f/4e/4f/4e/4f/4e/4f/4e/4f/4e/4f/4e/4f/4e/4f/4e/4f/4e/4f/4e/4f/4e/4 | %61
 f2 z B e/d/c/d/ e/f/g | g=A z G d/c/B/c/ d/e/g | fG z G c/B/=A/B/ c/d/e | %64
 FB/c/ d/c/d/c/ B/G/B/c/ d/c/d/c/ | B/F/B/c/ d/c/d/c/ B/_A/G/F/ EE | %66
 E/4D/4E/4D/4E/4D/4E/4D/4 E/D/E/G/ c/B/=A/G/ F/E/D/E/ | %67
 E/4D/4E/4D/4E/4D/4E/4D/4 E/F/=A/c/ d/c/e/d/ g/f/e/d/ | c/B/=A/G/ F/E/D/C/ D BCA | %69
 B/=A/G/F/ =E_d- dc/B/ =A>B | B2 z4 z2 | z4 z2 gc | z8 | z4 z2 fB | =eB/c/ _d=e f_A/B/ cf | %75
 gG/A/ Bg aF/G/ Aa | %76
 B/4A/4B/4A/4B/4A/4B/4A/4 B/4A/4B/4A/4B/4A/4B/4A/4 B/4A/4B/4A/4B/4A/4B/4A/4 B/4A/4B/4A/4B/4A/4B/4A/4 | %77
 B/G/A/c/ f/a/g/f/ g/f/=e/=d/ c2- | c_dcB cBAG | A_dcB c/B/A/G/ F z | G_ABA G_dcA | =EBAF AG z2 | %82
 z2 af z2 ae | z2 ad z2 ge | z2 fd z2 fc | z2 f=B z2 cF | z2 dF z2 eA | z2 fA z2 f=B | %88
 Gced Gc/d/ e/d/e/d/ | cd/e/ f/g/a ad z2 | FBdc FB/c/ d/c/d/c/ | Bc/d/ e/f/g gc z2 | %92
 c'/b/a/g/ ff f/4e/4f/4e/4f/4e/4f/4e/4 f/c/f/g/ | a/g/f/e/ _dd d/4c/4d/4c/4d/4c/4d/4c/4 d/A/d/e/ | %94
 f/g/a/g/ f/e/=d/c/ =B gcf | e>d d>c c ^F/G/ =A/B/c | c^F z2 F/G/=A/B/ c/d/e | %97
 e=A c^F Ac/e/ d/c/=B/A/ | =BG z2 z4 | z4 G/=A/=B/c/ d/e/f | f=B z2 B/c/d/e/ f/g/a | %101
 ad f=B dF/A/ G/F/E/D/ | EC z2 g/4f/4g/4f/4g/4f/4g/4f/4 g/4f/4g/4f/4g/4f/4g/4f/4 | %103
 g/c/d/e/ f/g/a/f/ d/c/d/f/ ad | x4 f/4e/4f/4e/4f/4e/4f/4e/4 f/4e/4f/4e/4f/4e/4f/4e/4 | %105
 f/B/c/d/ e/f/g/e/ c/=B/c/e/ gc | c'/b/a/g/ ff f/4e/4f/4e/4f/4e/4f/4e/4 f/c/f/g/ | %107
 a/g/f/e/ _dd d/4c/4d/4c/4d/4c/4d/4c/4 d/A/d/e/ | f/g/a/g/ f/e/=d/c/ =B gcf | e>d d>c !fermata!c4 | %110
[M:12/8] z12 | B/4A/4 B2- Bc/B/A/B/4A/4B/4c/4 D3- D/C/D/E/F/G/ | %112
 A/c/B/4A/4G/4A/4 f- f/e/d/c/B/A/ G/B/e/f/g/4f/4g/ g/=a/4b/4a/g/f/e/ | %113
 d/f/e/d/c/B/ b z/ z2 c/B/=A/G/F/ f/4e/4f/ z2 | z CE G c3 B/A/G/F/ =E z2 | %115
 z/ c/d/e/f/4e/4f/4f/4- f/4g/4a/4g/4-g/f/4e/4-e/d/ e/4d/4e/ z z4 | %116
 g/4f/4g/4f/4g/4f/4g/4f/4g/4f/4g/4f/4 g/a/g/f/g/4f/4g/4a/4 =B/4A/4B/4A/4B/4A/4B/4A/4B/4A/4B/4A/4 B/=A/B/c/d/e/ | %117
 f/a/g/4f/4e/4f/4d'/4c'/4d'/- d'/c'/=b/=a/g/f/ e/G/F/E/D/C/ c z2 | %118
 z/ d/c/=B/=A/G/ g/4f/4g/ z z2 DF _Ae<d- | %119
 d/e/d/c/d/4c/4d/4e/4 c/4B/4c/4B/4c/4B/4c/4B/4c/4B/4c/4B/4 c/d/c/=B/c/4B/4c/4d/4 e/4d/4e/4d/4e/4d/4e/4d/4e/4d/4e/4d/4 | %120
 e/f/e/d/e/4d/4e/4f/4 g/a/g/f/g/4f/4g/4a/4 e/4d/4e/4d/4e/4d/4e/4d/4e/4d/4e/4d/4 e/4d/4e/4d/4e/4d/4e/4d/4c | %121
 c/G/=A/=B/c/d/ e/f/e/d/e/4d/4e/4c/4 ACF A e2- | e/=A/B/c/d/e/ f/g/f/e/f/4e/4f/4d/4 BGB e g2- | %123
 g=Ac fe/4d/4e/4d/4e/4d/4e/4d/4 e/F/G/A/B/c/ d/=e/f/4e/4f/4e/4f/4e/4d/4e/4 | %124
 f3- f/g/f/e/f/4e/4f/4g/4 =A3- A/G/A/B/c/d/ | %125
 e/g/f/4e/4d/4e/4c'/4b/4c'/- c'/b/=a/g/f/e/ d/c/B/c/_d/4c/4d/ d/f/=e/4f/4g/c/B/ | %126
 A/c/B/A/G/F/ f z/ z2 g/f/=e/d/c/ c'/4b/4c'/ z2 | z/ z2 z4 c/d/e/f/4e/4f/- f/4g/4a/g/f/e/d/ | %128
 e2 z/ z4 D/G/=A/B/4A/4B/ B/4c/4d/c/4d/4c/4B/4A/4B/4A/4G/4 | %129
 ^F/=A/G/F/=E/D/ d z/ z2 e/d/c/B/A/ =a/4g/4a3/2 z | z2 z4 d3- d/e/d/c/d/4c/4d/4e/4 | %131
 ^F3- F/=E/F/G/=A/B/ c/d/4e/4d/4c/4B/4c/4 =a/4 g/4a/- a/g/^f/4g/4a/d/4e/4d/4c/4 | %132
 B3- B/c/B/=A/B/4A/4B/4c/4 A3- A/B/A/G/A/4G/4A/4B/4 | %133
 c/e/d/c/d/e/ G3- G/=A/G/^F/G/A/ G/4F/4G/4F/4G/4F/4G/4F/4G/4F/4G/4F/4 | %134
 G2- G z2 F =E/F/E/D/E/F/ G/A/G/F/G/A/ | B/c/B/A/B/c/ _d/ z/ c/ z/ B/ z/ =Ace F2 z | %136
 z z4 C- C/E/D/C/D/E/ F/G/F/E/F/G/ | A/B/A/G/A/B/ c/ z/ B/ z/ A/ z/ GB_d E2 z | %138
 z z4 b- b/c'/b/a/b/4a/4b/4g/4 a3- | a/b/a/g/a/4g/4a/4f/4 g3- g/a/g/f/g/e/ f/a/g/f/g/a/ | %140
 d/B/A/G/F/E/ e z z z/ f/e/d/c/B/ b/4a/4b/ z2 | z2 z4 B3- B/c/B/A/B/4A/4B/4c/4 | %142
 D3- D/C/D/E/F/G/ A/c/B/4A/4G/4A/4f- f/e/d/c/B/A/ | %143
 G3- G/A/G/F/G/4F/4G/4A/4 F3- F/G/F/E/F/4E/4F/4G/4 | %144
 A/c/B/A/B/4A/4B/4c/4 E3- E/F/E/D/E/F/ E/4D/4E/4D/4E/4D/4E/4D/4E/4D/4E/4D/4 | E12- | %146
 E6- E/E/D/C/D/=E/ ^F/G/F/E/F/G/ | =A/B/A/G/A/=B/ c/d/c/B/c/d/ !fermata!=B6 |[M:2/4] z2 z c | %149
 GcFc | E/D/E/D/ Ce | d g2 c | =B/=A/B/A/ G/A/B/G/ | cGdG | fe- e/c/d/=e/ | fcgc | ba>ga/f/ | %157
 c/=B/c/d/ =e/f/g/a/ | b/g/a/f/ c/f/a/f/ | c/=B/c/d/ =e/f/g/a/ | b/g/a/f/ c/f/a/f/ | %161
 B/=A/B/c/ d/e/f/g/ | a/f/g/e/ B/e/g/e/ | B/=A/B/c/ d/e/f/g/ | a/f/g/e/ B/e/g/e/ | f2 f2 | %166
 f2- f/e/d/f/ | e/d/e- e/d/e- | e/c/ e2 d/c/ | =BdFd | E/D/E/D/ Ce/f/ | gcG=B | c2 z c | GcFc | %174
 E/D/E/D/ C2- | C c2 =B | c/d/c/d/ ed/c/ | BeAe | G/F/G/F/ E2- | E e2 d | e/f/e/f/ g2- | ga/g/ ff | %182
 g/4f/4g/4f/4e z e- | ef/e/ dd | e/4d/4e/4d/4c z c/B/ | =AdG^d | ^F/=E/F/E/ Dg | %187
 ^f/g/f/g/ =e/f/e/f/ | d=A^Fg | dgcg | B/=A/B/A/ Gb | =a d'2 g | ^f/=e/f/e/ dD | GD=AD | BDcD | %195
 B/=A/G/B/ A/G/^F/A/ | G/^F/G/F/ GG | cGdG | eGfG | e/d/c/e/ d/c/=B/d/ | c/=B/c/B/ ce | %201
 d=B/c/ dg- | gceg | G/^F/G/=A/ =B/c/d/e/ | f/d/e/c/ G/c/e/d/ | e=A/B/ cf- | fBdf | %207
 F/=E/F/G/ =A/B/c/d/ | e/c/d/B/ F/B/d/B/ | c2 c2 | c2- c/B/=A/c/ | B/=A/B- B/A/B- | B/G/ B2 =A/G/ | %213
 ^F=Ac=a | B/=A/B/A/ G/A/B/c/ | dGD^F | G2 z d | BdGd | ^F/=E/F/E/ D z | z4 | z2 z =A | Bd Ge- | %222
 e/d/e/d/ c z | z4 | z2 z c | fdfc | =B/=A/B/A/ Gd | eceB | =A/G/A/G/ F z | z4 | z4 | z4 | z2 z f | %233
 z4 | A/G/A/G/ Fa | g c'2 f | =e/d/e/d/ cg | a4- | a4- | a4- | a4 | g/a/g/a/ f/g/f/g/ | %242
 e/f/e/f/ d/e/d/e/ | c/d/c/d/ e/f/^d/^e/ | A/B/A/B/ cA | f4- | f4- | f4- | f4 | e/f/e/f/ d/e/d/e/ | %250
 cGEc | GcFd | E/D/E/D/ C/D/E/F/ | G/A/G/A/ F/G/F/G/ | EBge | BeAf | G/F/G/F/ EB- | BG/A/ Be- | %258
 eAce | E/D/E/F/ G/A/B/c/ | _d/B/c/A/ E/A/c- | c=A/B/ cf- | fBdf | F/=E/F/G/ =A/B/c/d/ | %264
 e/c/d/B/ F/B/d- | d=B/c/ dg- | gceg | G/^F/G/=A/ =B/c/d/e/ | f/d/e/c/ G/c/e/c/ | f2 f2 | %270
 f2- f/e/d/f/ | e/d/e- e/d/e- | e/c/ e2 d/c/ | =BdFd | =BdFd | GcEc | C/D/E/D/ Ce | %277
 d/e/f- f/e/d/c/ | =B/c/d/B/ Gd | GdEd | GcEc | FcDc | F=BDB | GcFc | E/D/E/D/ Ce | d g2 c | %286
 =B/=A/B/A/ GG | cGdG | eGfG | e/d/c/e/ d/c/=B/d/ | c/=B/c/B/ c/d/=e/c/ | fcgc | acbc | %293
 a/g/f/a/ g/f/=e/g/ | fF c2- | c_d/c/ ^AA | ^A/4^G/4A/4G/4G z _A- | AB/A/ GG | GF z f/e/ | dgc^g | %300
 =B/=A/B/A/ Gc' | =b/c'/b/c'/ =a/b/a/b/ | gdGc | GcFc | E/D/E/D/ Ce | d g2 c | %306
 =B/=A/B/A/ G/A/B/G/ | cGdG | fe- e/c/d/=e/ | fcgc | ba- a/g/a/f/ | c/=B/c/d/ =e/f/g/a/ | %312
 b/g/a/f/ c/f/a/f/ | c/=B/c/d/ =e/f/g/a/ | b/g/a/f/ c/f/a/f/ | B/=A/B/c/ d/e/f/g/ | %316
 a/f/g/e/ B/e/g/e/ | B/=A/B/c/ d/e/f/g/ | a/f/g/e/ B/e/g/e/ | f2 f2 | f2- f/e/d/f/ | %321
 e/d/e- e/d/e- | e/c/ e2 d/c/ | =BdFd | E/D/E/D/ Ce/f/ | gcG[FG=B] | [EGc]2 z z |] %327
V:7
 E x GF E/D/E/F/ G/F/G/F/ | E x x2 x4 | D2 FE D/C/D/E/ F/E/F/E/ | [B,D] x x2 x4 | x8 | x8 | %6
 x4 x2 x c | c z =B2 x4 | x8 | x8 | x8 | x8 | E2 GF E/D/E/F/ G/F/G/F/ | [CE] z x2 z4 | x8 | %15
 D2 FE D/C/D/E/ F/E/F/E/ | [B,D] x x2 x4 | x8 | x8 | x8 | x8 | x8 | x8 | %23
 G/E/[I:staff +1]B,/[I:staff -1]E/ x2 x A/B/ cC | x8 | x6 x x | x8 | x8 | x8 | x8 | x8 | %31
 x2 x[I:staff +1] E- ECB,_A, | x8 | x8 | x8 | x8 | x8 | x8 | x8 | x8 | x8 | x8 | %42
 G, x[I:staff -1] G^F[I:staff +1] B,2[I:staff -1] G/F/G/F/ | G x x2 x4 | %44
 z x FC[I:staff +1] =A,2[I:staff -1] F/=E/F/E/ | F x x2 x4 | x8 | x8 | x8 | x8 | x8 | x8 | x8 | %53
 x8 | x8 | x8 | x8 | x8 | x8 | x8 |[I:staff +1] D/E/D/C/ B,/[I:staff -1]D/F/=A/ B/A/B/F/ D/F/B/c/ | %61
 d/B/F/B/[I:staff +1] B,[I:staff -1] z z[I:staff +1] E/F/ GG, | %62
[I:staff -1] x x/ x/[I:staff +1] =A,[I:staff -1] z z[I:staff +1] D/E/ FF, | %63
 B,C/D/ G,[I:staff -1] z z[I:staff +1] F,/G,/ =A,/B,/C | x8 | x8 | x8 | x8 | x8 | x8 | x8 | x8 | %72
 x8 | x8 | x8 | x8 | x8 | x8 | x8 | x8 | x8 | x8 | x8 | x8 | x8 | x8 | x8 | x8 | %88
 [G,C][I:staff -1] x [Gc][F=B] E2 c/=B/c/B/ | c x x2 x4 | %90
[I:staff +1] [F,B,][I:staff -1] x BF D2 x2 | x8 | x8 | x8 | x8 | x8 | x8 | x8 | x8 | x8 | x8 | x8 | %102
 x8 | x6 x2 | x8 | x8 | x8 | x8 | x4 x2 x c | c2 =B2 [EG]4 |[M:12/8] x12 | x12 | x12 | x12 | x12 | %115
 x12 | x12 | x12 | x12 | x12 | x12 | x12 | x12 | x12 | x12 | x12 | x12 | x12 | x12 | x12 | x12 | %131
 x12 | x12 | x12 | x12 | x12 | x12 | x12 | x12 | x12 | x12 | x12 | x12 | x12 | x12 | x12 | x12 | %147
 x12 |[M:2/4] x4 | x4 | x4 | x4 | x4 | x4 | [Gc]2 x2 | x4 | [cf]2 x2 | x4 | x4 | x4 | x4 | x4 | %162
 x4 | x4 | x4 | x4 | x4 | x4 | x4 | x4 | x4 | x4 | x4 | x4 | x4 | x4 | x4 | x4 | x4 | x4 | x4 | %181
 x4 | x4 | x4 | x4 | x4 | x4 | x4 | x4 | x4 | x4 | x4 | x4 | x4 | x4 | x4 | x4 | x4 | x4 | x4 | %200
 x4 | x4 | x4 | x4 | x4 | x4 | x4 | x4 | x4 | x4 | x4 | x4 | x4 | x4 | x4 | x4 | x4 | x4 | x4 | %219
 x4 | x4 | x4 | x4 | x4 | x4 | x4 | x4 | x4 | x4 | x4 | x4 | x4 | x4 | x4 | x4 | x4 | x4 | x4 | %238
 x4 | x4 | x4 | x4 | x4 | x4 | x4 | x4 | x4 | x4 | x4 | x4 | x4 | x4 | x4 | x4 | x4 | x4 | x4 | %257
 x4 | x4 | x4 | x4 | x4 | x4 | x4 | x4 | x4 | x4 | x4 | x4 | x4 | x4 | x4 | x4 | x4 | x4 | x4 | %276
 x4 | x4 | x4 | x4 | x4 | x4 | x4 | x4 | x4 | x4 | x4 | x4 | x4 | x4 | x4 | x4 | x4 | x4 | x4 | %295
 x4 | x4 | x4 | x4 | x4 | x4 | x4 | x4 | x4 | x4 | x4 | x4 | x4 | [Gc]2 x2 | x4 | [cf]2 x2 | x4 | %312
 x4 | x4 | x4 | x4 | x4 | x4 | x4 | x4 | x4 | x4 | x4 | x4 | x4 | x2 x D | C2 z2 |] %327
V:8
 [G,C]2 z2 x4 | [E,G,] x x2 x4 | [F,B,]2 z2 x4 | [D,F,] x x2 x4 | z4 C/B,/A,/G,/ F, z | %5
 x4 A,/G,/F,/E,/ _D, z | z F/E/ =D/C/=B,/C/ D C/=B,/ CA, | G,F,G,G,, [C,,C,]2 z/ =B,/C/D/ | %8
 E z z/ C/=B,/C/ C, z z/ C/B,/C/ | C, z z/ C/=B,/C/ C, z z/ C,/=B,,/=A,,/ | %10
 G,,/G,/^F,/G,/ =B, z z/ B,/D/=F/ E z | z/ D/=B,/G,/ C/G,/E,/C,/ G,/G,,/G,/F,/ E,/D,/C,/=B,,/ | %12
 [G,C]2 z2 x4 | [E,G,] x x2 x4 | F z B,,C, D,E,F,G,, | [F,B,]2 z2 x4 | [D,F,] x x2 x4 | %17
 E=B,CD EF G/G/F/G/ | E/F/E/D/ C/B,/A,/G,/ A, B,,C,D, | G,,/E/D/C/ B,/A,/G,/F,/ G, A,,B,,C, | %20
 F,,D,/E,/ F,/E,/F,/A,/ D,/F,/B,/C/ D/C/D/F/ | B,/G,/E/D/ C/E/D/C/ D D,E,F, | %22
 G,/A,/G,/F,/ E,/G,/B,/D/ E/D/E/B,/ G,/B,/[I:staff -1]E/F/ |[I:staff +1] x x x2 x4 | %24
[I:staff -1] EF/G/ D[I:staff +1] z z[I:staff -1] G/A/ BB, | EF/G/ C[I:staff +1] z z B,/C/ D/E/F | %26
 G,/B,/C/D/ E/D/E z/ A,/C/D/ E/D/E | z/ B,/C/D/ E/D/E z A,/B,/ C/B,/A,/B,/ | %28
 C/B,/A,/B,/ CA, z B,/C/ D/C/B,/C/ | D/C/B,/C/ DB, E/D/C/B,/ A,/G,/F,/E,/ | %30
 D,/C,/B,,/A,,/ G,,/B,,/C,/D,/ E,/F,/G,/F,/ A,/B,/A,/F,/ | G,/B,/C/D/ E/D/C/=A,/ B,A,B,B,, | %32
 [E,G,]2 z2 z4 | z4 z2 D,D,, | z8 | z4 z2 G,G,, | z2 CA, z2 G,E, | z2 CF, z2 CB,, | %38
 z2 =A,^F, z2 E,C, | z2 ^A,D, z2 E,E,, | z2 F,F,, z2 G,G,, | z2 =A,=A,, z2 D,/E,/D,/C,/ | %42
 [B,,D,]G,, z2 G,B,, z2 | B,G,E,C, F,,F, z2 | [=A,,C,]F,, z2 F,A,, z2 | =A,F,D,B,, E,,E, z2 | %46
 E,C z2 z CG,E, | C,_A, z2 z A,E,C, | A,,G,,^F,,G,, A,,^F,G,E, | D,C,D,D,, G,, D=B,G, | %50
 D,G, D,F, G,,3/2 G/ F/E/D/C/ | =B,G, D,F, =B,,D, G,,B,, | G, z z2 x4 | z4 z =A,^F,D, | %54
 =A,,D, A,,D, D,,3/2 D/ C/B,/=A,/G,/ | ^F,D, =A,,C, ^F,,A,, D,,F,, | %56
 G,, G,/=A,/ B,/A,/G,/A,/ B,/A,/G,/A,/ B, z | z E,/F,/ G,/F,/E,/F,/ G,/F,/E,/F,/ G, z | %58
 z C,/D,/ E,/D,/C,/D,/ E,/D,/C,/D,/ E, z | z E,/F,/ G,/B,/=A,/G,/ z =A,B,C | x8 | x8 | x8 | x8 | %64
 D,/F,/G,/=A,/ B,/A,/B, z/ E,/G,/A,/ B,/A,/B, | z/ E,/G,/=A,/ B,/A,/B, z E,/F,/ G,/F,/E,/F,/ | %66
 G,/F,/E,/F,/ G,E, z F,/G,/ =A,/G,/F,/G,/ | =A,/G,/F,/G,/ A,F, B,/A,/G,/F,/ E,/D,/C,/A,,/ | %68
 =A,,/G,,/F,,/E,,/ D,,/F,,/G,,/A,,/ B,,/C,/D,/B,,/ E,/F,/E,/C,/ | x2 x B,- B,G,F,_E, | D,2 z2 z4 | %71
 z4 z2 =A,=A,, | z8 | z4 z2 DD, | G,B,/_A,/ G,G,, _A,,C/B,/ A,A,, | %75
 B,,_D/C/ B,B,, C,A,/G,/ F,/E,/=D,/C,/ | D,/F,/A,/G,/ F,/E,/D,/F,/ =E,/D,/C,/D,/ _E,/F,/G,/E,/ | %77
 F, _E,_D,_D C2 C/B,/A,/G,/ | A, z z/ F,/=E,/F,/ F,, z z/ F,/E,/F,/ | %79
 F,, z z/ F,/=E,/F,/ F,, z z/ F,/_E,/_D,/ | C,/C/=B,/C/ =E, z z/ E,/G,/_B,/ A, z | %81
 z/ G,/=E,/C,/ F,/C,/A,,/F,,/ C,/C,,/C,/B,,/ A,,/G,,/F,,/=E,,/ | F,, z F,F z2[I:staff -1] CG | %83
[I:staff +1] z2 F,B, z2 E,E | z2 D,=B, z2 A,F | z2 =B,G z2 A,,A, | z2 B,,B, z2 C,C | %87
 z2 D,D z2 G,/A,/G,/F,/ | E,C, z2 CE, z2 | ECA,F, B,,B, z2 | D,B,, z2 B,D, z2 | DB,G,E, A,,A, z2 | %92
 A,F z2 z FCA, | F,_D z2 z DA,F, | _D,C,=B,,C, =D, =B,CB, | G,F,G,G,, D, =A,^F,D, | %96
 =A,,D, A,,C, D,,3/2 D/ C/B,/=A,/G,/ | ^F,D, =A,,C, ^F,,A,, D,,F,, | G,,G, z2 z4 | z4 z D=B,G, | %100
 D,G, D,F, G,,3/2 G/ F/E/D/C/ | =B,G, D,F, =B,,D, G,,B,, | C,C,, z2 z/ F/E/D/ CG | %103
 G,CA,F, B,/A,/B,/[I:staff -1]D/ F/E/F/D/ | B[I:staff +1]B, z2 z/ F/E/D/ CG | %105
 F,B,G,E, A,/G,/A,/C/ E/D/E/C/ | A,/G,/F,/G,/ A,/G,/F,/G,/ A,/G,/F,/G,/ A,/G,/F,/=E,/ | %107
 F,/=E,/_D,/E,/ F,/E,/D,/E,/ F,/E,/D,/E,/ F,/E,/D,/C,/ | _D,F,A,,F,- F, C/=B,/ CA, | %109
 G,F,G,G,, C,,4 |[M:12/8] z12 | z E,/B,,/F,/B,,/ G,G,,A,, B,,/D,/F,/B,/A,/G,/ A,A,,G,, | %112
 F,,F,E, D,B,,D, E,G,E, C,F,F,, | B,,2 z/ z E/D/C/D/B,/ F z/ z2 C/F,/G,/=A,/B,/ | %114
 CC, z2 F,/G,/=A,/F,/ B,B,, z4 | z F,E, D,=B,G, CC, z4 | %116
 G,,/=B,,/D,/G,/F,/D,/ E,E,,C,, G,,/D,/F,/A,/G,/F,/ G,F,E, | D,DC =B,DG, CC,D, E,C,A, | %118
 G, z/ z2 D/G,/=A,/=B,/C/ DD, z2 G,,/=A,,/=B,,/G,,/ | C,CB, A,A,,G,, F,,F,F,, G,,G,G,, | %120
 A,,A,A,, G,,G,F, G,G,,F,, G,,G,G,, | C, C2- C/D/C/B,/C/E/ FF,E, D,DC | %122
 B, D2- D/E/D/C/D/B,/ E,ED CC,B,, | =A,,/D/C/B,/C/=A,/ F,G,A, B,B,,A,, G,,G,C, | %124
 F,/=A,/C/F/E/4D/4E/4C/4 DD,E, F,/A,/C/F/E/4F/4E/4D/4 EE,D, | C,CB, =A,F,A, B,/C/D/=E/F/G/ ECE | %126
 F z/ z2 B,/A,/G,/A,/F,/ C z/ z2 G,/C/D/=E/F/ | GG, z2 C/D/=E/C/ FF,E, D,=B,G, | %128
 C2 z z4 G,F, E,EC | D2 z/ z C/B,/=A,/B,/G,/ D z/ z2 B,/A,/G,/_G,/=G,/ | %130
 E,E z2 D,/=E,/_G,/D,/ =G,/_G,/=G,/D,/=A,/D,/ B,B,,C, | %131
 D,/_G,/=A,/D/C/B,/ CC,B,, =A,,A,=G, _G,D,G, | G,G,,F,, E,,E,D, C,C,,C, D,D,,D, | %133
 E,E,,E, D,D,,C,, D,,D,C, D,D,,D, | G,,G,=A, B,A,G, CC,D, =E,/F,/E,/D,/E,/F,/ | %135
 G,/A,/G,/F,/G,/A,/ B,/C/B,/A,/B,/C/ F,=A,C E2 z | z CB, =A,CF, B,B,,C, D,/E,/D,/C,/D,/E,/ | %137
 F,/G,/F,/E,/F,/G,/ A,/B,/A,/G,/A,/B,/ E,G,B, _D2 z | z B,A, G,B,E, A,,A,G, F,F,,E,, | %139
 D,,D,B,, E,E,,E, A,/4F,/4A,/- A,3 A,,E, | A,D, z/ z A,/G,/F,/G,/E,/ B, z/ z2 F,/B,/C/D/E/ | %141
 FF, z2 B,,/C,/D,/B,,/ E,/D,/E,/B,,/F,/B,,/ G,G,,A,, | %142
 B,,/D,/F,/B,/A,/G,/ A,A,,G,, F,,F,E, D,B,,D, | E,E,,D,, C,,CB, A,A,,A, B,B,,B, | %144
 CC,C B,B,,A,, B,,B,A, B,B,,B, | E,E,,E, F,F,,G,, A,,/B,/A,/G,/A,/C/ E,/F,/E,/D,/E,/G,/ | %146
 C,/_D,/C,/B,,/C,/A,,/ E,/D,/E,/G,/C,/E,/ =D,2 z/ z G,/=A,/B,/A,/G,/ | %147
 ^F,/=E,/F,/G,/F,/E,/ [D,F,=A,D]3 !fermata![G,D]6 |[M:2/4] z2 z z | z4 | z2 z C | %151
 B,/C/B,/C/ A,/B,/A,/B,/ | G,D,G,,F, | E,/F,/E,/F,/ D,/E,/D,/E,/ | C,/D,/C,/D,/ B,,/C,/B,,/C,/ | %155
 A,,/B,,/A,,/B,,/ G,,/A,,/G,,/A,,/ | F,,/=E,,/F,,/G,,/ A,,/B,,/C,/D,/ | =E,G,C,E, | F,F,,A,,C, | %159
 =E,G,C,E, | F,F,,A,,C, | D,F,B,,D, | E,E,,G,,B,, | D,F,B,,D, | E,,E,G,E, | D,A,C,A, | %166
 =B,,/=A,,/B,,/A,,/ G,,/A,,/B,,/G,,/ | C,G,B,,F, | =A,,/G,,/A,,/G,,/ ^F,,/G,,/A,,/F,,/ | %169
 G,,/A,,/G,,/A,,/ G,,/A,,/F,,/G,,/ | A,,/A,/G,/F,/ E,/A,/G,/F,/ | E,/A,/G,/F,/ G,G,, | C,G,,C,, z | %173
 z4 | z2 z C,/D,/ | E,/D,/E,/C,/ G,/F,/G,/G,,/ | C,G,,C,, z | z4 | z2 z E,/F,/ | %179
 G,/F,/G,/E,/ B,/A,/B,/B,,/ | E,B,, E,,/E,/G,/E,/ | A,F, D,/B,/A,/B,/ | E,G, C,/C/=B,/C/ | %183
 D,C, =B,,/G,/F,/G,/ | C,E, =A,,/C,/E,/G,,/ | ^F,,/^F,/=A,/F,/ G,C, | D,4 | D,C D,B, | =A,D z2 | %189
 B,,/C,/B,,/C,/ =A,,/B,,/A,,/B,,/ | G,,D/C/ B,/=A,/G,/A,/ | F,/G,/F,/G,/ E,/F,/E,/F,/ | %192
 D,=A,, D,, z | z4 | z2 z D, | G,B,,C,D, | G,,D, G, z | z2 z G, | z2 z G, | CE,F,G, | C,G,C G- | %201
 GF/E/ D/C/=B,/=A,/ | G,/=B,/C/G,/ E,/G,/C,/E,/ | =B,,D,G,,B,, | C,G,CG | FE/D/ C/B,/=A,/G,/ | %206
 F,/=A,/B,/F,/ D,/F,/B,,/D,/ | =A,,C,F,,A,, | B,,F,B,E, | C,EG,E | ^F,/=E,/F,/E,/ D,/E,/F,/D,/ | %211
 G,,DF,D | =E,/D,/E,/D,/ ^C,/D,/E,/C,/ | D,/E,/D,/E,/ D,/E,/C,/D,/ | E,D,/C,/ B,,/E,/D,/C,/ | %215
 B,,/E,/D,/C,/ D,D,, | G,,2 z G,, | G,2 B,2 | D2 z2 | z4 | z2 z D, | G,2 G,,2 | =A,,2 z z | z4 | %224
 z2 z =A,, | D,,2 D,2 | G,,2 z =B,, | C,,2 C,2 | F,,2 z2 | z4 | z4 | z4 | z4 | z4 | z2 z F, | %235
 E,/F,/E,/F,/ _D,/E,/D,/E,/ | C,G,, C,,/C,/=E,/C,/ | F,/G,/F,/G,/ E,/F,/E,/F,/ | %238
 D,/E,/D,/E,/ C,/D,/C,/D,/ | B,, z A,, z | G,, z F,, z | E,/F,/E,/F,/ D,/E,/D,/E,/ | %242
 C,/D,/C,/D,/ B,,/C,/B,,/C,/ | A,, z G,, z | F,, z E,, z | D,/E,/D,/E,/ C,/D,/C,/D,/ | %246
 =B,,/C,/B,,/C,/ =A,,/B,,/A,,/B,,/ | G,, z F,, z | E,, z D,, z | C,, z z2 | %250
 C/G,/E,/G,/ C,/D,/C,/D,/ | E,/D,/E,/C,/ G,/F,/G,/G,,/ | C,G,,C,, C,/D,/ | E,/D,/ E,2 D, | %254
 E,/B,,/G,,/B,,/ E,,/B,,/E,/F,/ | G,/F,/G,/E,/ B,/A,/B,/B,,/ | E,B,, E,G,/A,/ | %257
 E_D/C/ B,/A,/G,/F,/ | E,/G,/A,/E,/ C,/E,/A,,/C,/ | G,,B,,E,,G,, | A,,E, A,/E,/A,/C/ | %261
 FE/D/ C/B,/=A,/G,/ | F,/=A,/B,/F,/ D,/F,/B,,/D,/ | =A,,C,F,,A,, | B,,F, B,/F,/B,/D/ | %265
 GF/E/ D/C/=B,/=A,/ | G,/=B,/C/G,/ E,/G,/C,/E,/ | =B,,D,G,,B,, | C,G,CE, | D,A,C,A, | %270
 =B,,/=A,,/B,,/A,,/ G,,/A,,/B,,/G,,/ | C,G,B,,G, | =A,,/G,,/A,,/G,,/ ^F,,/G,,/A,,/F,,/ | %273
 G,,G,=B,G, | G,,G,=B,G, | G,,E,CE, | G,,C,E,C, | G,,=B,DB, | G,,=B,DB, | G,,G,=B,G, | G,,G,CG, | %281
 G,,D,G,D, | G,,D,G,D, | C,2 z z | z3 C | B,/C/B,/C/ A,/B,/A,/B,/ | G,D, G,, z | z4 | z2 z G,, | %289
 C,E,,F,,G,, | C,,G,, C, z | z4 | z4 | F,A,,B,,C, | F,,C, F,/G,/A,/F,/ | B,A, G,/E/_D/E/ | %296
 A,C F,/F/=E/F/ | G,F, =E,/C/B,/C/ | F,A, D,/F,/A,/C,/ | =B,,/=B,/D/B,/ CF, | G,4- | G,FG,E | %302
 [G,-D][G,-G] G,/A,/F,/G,/ | E,/F,/E,/F,/ D,/E,/D,/E,/ | C,G,,C,,C, | %305
 B,,/C,/B,,/C,/ A,,/B,,/A,,/B,,/ | G,,D, G,F, | E,/F,/E,/F,/ D,/E,/D,/E,/ | %308
 C,/D,/C,/D,/ B,,/C,/B,,/C,/ | A,,/B,,/A,,/B,,/ G,,/A,,/G,,/A,,/ | %310
 F,,/=E,,/F,,/G,,/ A,,/B,,/C,/D,/ | =E,G,C,E, | F,F,,A,,C, | =E,G,C,E, | F,F,,A,,C, | D,F,B,,D, | %316
 E,E,,G,,B,, | D,F,B,,D, | E,,E,G,E, | D,A,C,A, | =B,,/=A,,/B,,/A,,/ G,,/A,,/B,,/G,,/ | C,G,B,,F, | %322
 =A,,/G,,/A,,/G,,/ ^F,,/G,,/A,,/F,,/ | G,,/A,,/G,,/A,,/ G,,/A,,/F,,/G,,/ | %324
 A,,/A,/G,/F,/ E,/A,/G,/F,/ | E,/A,/G,/F,/ G,G,, | [C,,C,]2 z2 |] %327
V:9
 [C,E,]2 z2 C2 z2 | C,CA,F, B,,B, z2 | [B,,D,]2 z2 B,2 z2 | B,,B,G,E, A,,A, z2 | %4
 A,,C,/B,,/ A,,C,/B,,/ A,,C,/B,,/ A,,G,, | F,,A,,/G,,/ F,,A,,/G,,/ F,,A,,/G,,/ F,, z | %6
 F,,2 z2 F, E,A,F, | x8 | x8 | x8 | x8 | x8 | [C,E,]2 z2 C2 z2 | C,CA,F, B,,/F,/B,/C/ D/E/F/G/ | %14
 x8 | [B,,D,]2 z2 B,2 z2 | B,,B,G,E, A,,/E,/A,/B,/ C/D/E/F/ | x8 | x8 | x8 | x8 | x4 x B,,C,D, | %22
 E, x x2 x4 | x x E, x4 x | x8 | x8 | x8 | x8 | x8 | x8 | x8 | x8 | x8 | x8 | x8 | x8 | x8 | x8 | %38
 x8 | x8 | x8 | x8 | x8 | x8 | F, x z2 x4 | x8 | x8 | x8 | x8 | x8 | x8 | x8 | [C,E,] z z2 z4 | %53
 x8 | x8 | x8 | x8 | x8 | x8 | x4 _A, F,G,=A, | B, x x2 x4 | x8 | CD/E/ x6 | x8 | x8 | x8 | x8 | %67
 x8 | x8 | D,/F,/G,/=A,/ B,/A,/B,/=E,/ F,E,F,F,, | B,,2 z2 z4 | x8 | x8 | x8 | x8 | x8 | x8 | x8 | %78
 x8 | x8 | x8 | x8 | x8 | x8 | x8 | x8 | x8 | x8 | x8 | x8 | x8 | x8 | x8 | x8 | x8 | x8 | x8 | %97
 x8 | x8 | x8 | x8 | x8 | x8 | x8 | x8 | x8 | x8 | x8 | x4 z E,A,F, | z F,G,G,, z4 |[M:12/8] x12 | %111
 x12 | x12 | x12 | x12 | x12 | x12 | x12 | x12 | x12 | x12 | x12 | x12 | x12 | x12 | x12 | x12 | %127
 x12 | x12 | x12 | x12 | x12 | x12 | x12 | x12 | x12 | x12 | x12 | x12 | x12 | x12 | x12 | x12 | %143
 x12 | x12 | x12 | x12 | x12 |[M:2/4] x4 | x4 | x4 | x4 | x4 | x4 | x4 | x4 | x4 | x4 | x4 | x4 | %160
 x4 | x4 | x4 | x4 | x4 | x4 | x4 | x4 | x4 | x4 | x4 | x4 | x4 | x4 | x4 | x4 | x4 | x4 | x4 | %179
 x4 | x4 | x4 | x4 | x4 | x4 | x4 | x4 | x4 | D,2- D,/ E,/C,/D,/ | x4 | x4 | x4 | x4 | x4 | x4 | %195
 x4 | x4 | x4 | x4 | x4 | x4 | x4 | x4 | x4 | x4 | x4 | x4 | x4 | x4 | x4 | x4 | x4 | x4 | x4 | %214
 x4 | x4 | x4 | x4 | x4 | x4 | x4 | x4 | x4 | x4 | x4 | x4 | x4 | x4 | x4 | x4 | x4 | x4 | x4 | %233
 x4 | x4 | x4 | x4 | x4 | x4 | x4 | x4 | x4 | x4 | x4 | x4 | x4 | x4 | x4 | x4 | x4 | x4 | x4 | %252
 x4 | x4 | x4 | x4 | x4 | x4 | x4 | x4 | x4 | x4 | x4 | x4 | x4 | x4 | x4 | x4 | x4 | x4 | x4 | %271
 x4 | x4 | x4 | x4 | x4 | x4 | x4 | x4 | x4 | x4 | x4 | x4 | x4 | x4 | x4 | x4 | x4 | x4 | x4 | %290
 x4 | x4 | x4 | x4 | x4 | x4 | x4 | x4 | x4 | x4 | x4 | x4 | x4 | x4 | x4 | x4 | x4 | x4 | x4 | %309
 x4 | x4 | x4 | x4 | x4 | x4 | x4 | x4 | x4 | x4 | x4 | x4 | x4 | x4 | x4 | x4 | x4 | x4 |] %327
V:10
 Gced Gc/d/ e/d/e/d/ | cd/e/ f/g/a ad z2 | FBdc FB/c/ d/c/d/c/ | Bc/d/ e/f/g gc z2 | %4
 c'/b/a/g/ ff g/4f/4g/4f/4g/4f/4g/4f/4 f/c/f/g/ | a/g/f/e/ _dd e/4d/4e/4d/4e/4d/4e/4d/4 d/A/d/e/ | %6
 f/g/a/g/ f/e/=d/c/ =B gcf | e>d d/4e/4d/4e/4d/c/ c2 z2 | z2 C2 z2 C2 | z2 C2 z ge z | %10
 z2 G2 z2 G2 | z2 G2 z =BcD | CGed Gc/d/ e/d/e/d/ | cd/e/ f/g/a ad fB | d z z2 z4 | %15
 FBdc FB/c/ d/c/d/c/ | Bc/d/ e/f/g gc fG | c z z2 z4 | c/B/A/G/ FF F2 z2 | B/A/G/F/ EE E2 z2 | z8 | %21
 z4 z/ f/a/g/ f/e/d/c/ | Begf Be/f/ g/f/g/f/ | ef/g/ a/b/c' c'd z2 | de/f/ g/a/b bc z2 | %25
 cd/e/ f/g/a aB z2 | z2 G2 z2 A2 | z2 B z z2 e/d/c/B/ | AA A2- A-A/G/ F/E/D/C/ | B,B,B, z z4 | z8 | %31
 z8 | B,EGF B,E/F/ G/F/G/F/ | EF/G/ A/B/c cF z2 | A,DFE A,D/E/ F/E/F/E/ | DE/F/ G/A/B BE z2 | %36
 z2 C2 z2 B,2 | z c=Ac d2 B,2 | z2 =A,2 z2 G,2 | z =A^FA B2 z2 | z8 | z8 | DGB=A DG/A/ B/A/B/A/ | %43
 G=A/B/ c/d/e eA z2 | CF=AG CF/G/ A/G/A/G/ | FG/=A/ B/c/d dG z2 | g/f/e/d/ cc c2- c/G/c/d/ | %47
 ec/B/ AA B/4A/4B/4A/4B/4A/4B/4A/4 z2 | z4 z dGc | B>=A A>G G2 z G/A/ | =B/c/d/e/ fB z2 z =B/c/ | %51
 d/e/f/g/ _ad z4 | Gced Gc/d/ e/d/e/d/ | c/d/e/f/ g/=a/b/c'/ ^fd z D/=E/ | %54
 ^F/G/=A/B/ cF z2 z ^F/G/ | =A/B/c/d/ eA z4 | z2 d/c/B/=A/ G/D/G/^F/ G z | %57
 z2 B/_A/G/F/ E/B,/E/D/ E z | z2 g/f/e/d/ c/G/c/=B/ c z | z4 z/ c/e/d/ c/B/=A/G/ | %60
 FBdc FB/c/ d/c/d/c/ | Bc/d/ e/f/g g=A z2 | =AB/c/ d/e/f fG z2 | G=A/B/ c/d/e eF z2 | z2 D2 z2 E2 | %65
 F z z2 z2 b/_a/g/f/ | ee e/4d/4e/4d/4e/4d/4e/4d/4 e/F/E/D/ C/E/F/G/ | F/G/=A/B/ cE z4 | z8 | z8 | %70
 FBdc FB/c/ d/c/d/c/ | Bc/d/ e/f/g gc z2 | E=AcB EA/B/ c/B/c/B/ | =AB/c/ d/e/f fB z2 | %74
 z2 G,2 z2 _A,2 | z2 B,2 z2 C2 | z2 D2 z2 =E2 | z c'2 b c'2 z2 | z2 F2 z2 F2 | z2 F2 z cA z | %80
 z2 C2 z2 C2 | z2 C2 z =efg | A2 F2 z2 E2 | z FDF G2 E2 | z2 D2 z2 C2 | z D=B,D E2 z2 | z8 | z8 | %88
 Gced Gc/d/ e/d/e/d/ | cd/e/ f/g/a ad z2 | FBdc FB/c/ d/c/d/c/ | Bc/d/ e/f/g gc z2 | %92
 c'/b/a/g/ ff f/4e/4f/4e/4f/4e/4f/4e/4 f/c/f/g/ | a/g/f/e/ _dd d2 z2 | z4 z gcf | %95
 e>d d>c c2 z D/=E/ | ^F/G/=A/=B/ cF z2 z ^F/G/ | =A/B/c/d/ eA z4 | Gdfe Gd/e/ f/e/f/e/ | %99
 d/c/d/e/ f/g/_a =BD z G/=A/ | =B/c/d/e/ fB z2 z =B/c/ | d/e/f/g/ ad z4 | Gced Gc/d/ e/d/e/d/ | %103
 cd/e/ f/g/a ad z2 | FBdc FB/c/ d/c/d/c/ | Bc/d/ e/f/g gc z2 | %106
 c'/b/a/g/ ff f/4e/4f/4e/4f/4e/4f/4e/4 f/c/f/g/ | a/g/f/e/ _dd d/4c/4d/4c/4d/4c/4d/4c/4 d/A/d/e/ | %108
 f/g/a/g/ f/e/=d/c/ =B gcf | e>d d>c !fermata!c4 |[M:12/8] z12 | z ed z ec z FB z Be | %112
 z dc z BA z GB z ec | z B=A z BG z FA z cf | z ge z cf z dB z c=e | z fa z dg z ec z fa | %116
 z gd z ce z d=B z Gc | z =Bf z gd z eB z cA | z G=B z dg z af z dg | z gG z ce z ad z =BG | %120
 z Cc z ed z ea z gf | z eg z ce z =Ac z FA | z dB z ba z ge z ec | z Ff z ec z df z =eg | %124
 z f=A z BG z CF z FB | z =AG z FE z DB, z BG | z F=E z F_D z CE z Gc | z _dB z Gc z AF z G=B | %128
 z ce z =Ad z BG z ce | z d=A z GB z A^F z DG | z ^Fc z d=A z BF z GE | z D^F z =Ad z ec z Ad | %132
 z dD z GB z e=A z ^FD | z G,G z B=A z Be z dc | B12- | B6 =A6- | A6 ^G6- | G6 =G6- | %138
 G6- Gc=e z fa | z Bd z eg z ec z AE | z Bd z ec z FB z Be | z dc z Bf z ed z ec | %142
 z Bd z fb z c^G z FB | z BB, z EG z cF z dB | z eE z GF z Gc z BA | z GE z AB z ce z ag | %146
 z ae z ce =A3 z z2 | z2 z [d^f]3 !fermata![=Bg]6 |[M:2/4] z2 z c | GcFc | E/D/E/D/ C e | d g2 c | %152
 =B/=A/B/A/ G/A/B/G/ | cGdG | fe- e/c/d/=e/ | fc gc | ba>ga/f/ | c/=B/c/d/ =e/f/g/a/ | %158
 b/g/a/f/ c/f/a/f/ | c/=B/c/d/ =e/f/g/a/ | b/g/a/f/ c/f/a/f/ | B/=A/B/c/ d/e/f/g/ | %162
 a/f/g/e/ B/e/g/e/ | B/=A/B/c/ d/e/f/g/ | a/f/g/e/ B/e/g/^d/ | ^e2 f2 | f2- f/e/d/f/ | %167
 e/d/e- e/d/e- | e/c/ e2 d/c/ | =BdFd | E/D/E/D/ Ce/f/ | gcG=B | c2 z2 | z4 | z2 z c | Gc Fd | %176
 E/D/E/D/ C z | z4 | z2 z e | BeAf | G/F/G/F/ E z | z4 | z4 | z4 | z4 | z4 | z2 z D | C=AB,G | %188
 =A,/G,/A,/G,/ A,g | dgcg | B/=A/B/A/ Gb | =a d'2 g | ^f/=e/f/e/ d z | z4 | z2 z ^F | GD=AD | %196
 B/=A/B/A/ G z | z4 | z2 z =B | cGdG | e/d/e/d/ c z | z4 | z2 z c | =BdGB | cG C z | z4 | z2 z B | %207
 =AcFA | BFB,G | c2 c2 | c2- c/B/=A/c/ | B/=A/B- B/A/B- | B/G/ B2 =A/G/ | ^F=Ac=a | %214
 B/=A/B/A/ G/A/B/c/ | dGD^F | G2 z2 | d4- | d4- | d4- | d4- | d2 e2 | f4- | f4- | f4- | f4- | f4 | %227
 e4- | e4 | z4 | z4 | z4 | z3 f | cfBf | A/G/A/G/ Fa | g c'2 f | =e/d/e/d/ cg | afcg | afAg | %239
 afBf | afdf | geBf | geGf | geAe | gece | fdAe | fdFe | fdGd | fd=Bd | e z z2 | z2 z c | GcFc | %252
 E/D/E/D/ C z | z4 | z2 z e | BeAf | G/F/G/F/ E z | z4 | z2 z A | GBEG | AEA, z | z4 | z2 z B | %263
 =AcFA | BFB, z | z4 | z2 z c | =BdGB | cGCc | f2 f2 | f2- f/e/d/f/ | e/d/e- e/d/e- | %272
 e/c/ e2 d/c/ | =B4- | B4 | c4- | c4 | d4- | d4- | d4 | c4- | c4 | =B4 | ccFc | E/D/E/D/ Ce | %285
 d g2 c | =B/=A/B/A/ G z | z4 | z2 z =B, | CG,DG, | E/D/E/D/ C z | z4 | z2 z =E | FCGC | %294
 A/G/A/G/ F z | z4 | z4 | z4 | z4 | z4 | z2 z G | FdEc | D/C/D/C/ =B,c | GcFc | E/D/E/D/ Ce | %305
 d g2 c | =B/=A/B/A/ G/A/B/G/ | cGdG | fe- e/c/d/=e/ | fcgc | ba- a/g/a/f/ | c/=B/c/d/ =e/f/g/a/ | %312
 b/g/a/f/ c/f/a/f/ | c/=B/c/d/ =e/f/g/a/ | b/g/a/f/ c/f/a/f/ | B/=A/B/c/ d/e/f/g/ | %316
 a/f/g/e/ B/e/g/e/ | B/=A/B/c/ d/e/f/g/ | a/f/g/e/ B/e/g/e/ | f2 f2 | f2- f/e/d/f/ | %321
 e/d/e- e/d/e- | e/c/ e2 d/c/ | =BdFd | E/D/E/D/ Ce/f/ | gcG=B | c2 z2 |] %327
V:11
 E,2 z2 C,2 z2 | G,,C,C,F, F,B,, z2 | D,2 z2 B,,2 z2 | F,,B,,B,,E, E,A,, z2 | %4
 F,2 z2 C,/B,,/A,,/G,,/ F,, z | _D,2 z2 A,,/G,,/F,,/E,,/ _D,, z | %6
 z F,/E,/ D,/C,/=B,,/C,/ D, C,E,A, | G,A,G,F, E,2 z2 | z2 C,2 z2 C,2 | z2 C,2 z E,G, z | %10
 z2 G,2 z2 G,2 | z2 G,2 z D,E,G, | E,2 z2 C,2 z2 | G,,C,C,F, F,B,, z2 | z8 | D,2 z2 B,,2 z2 | %16
 F,,B,,B,,E, E,A,, z2 | z8 | z4 D,F,/E,/ D,/C,/B,,/A,,/ | G,,E, z2 C,E,/D,/ C,/B,,/A,,/G,,/ | %20
 A,, z z2 z4 | z8 | E,G,B,A, G,B, E/D/E/D/ | B, z z2 z F,F,A, | A, z z2 z E,E,G, | %25
 G, z z2 z B,,/C,/ D,/E,/F,- | F,E, z2 F,C, z2 | G,B,, z2 A,A,, z2 | E,/D,/C,/B,,/ A,, z B,,F, z2 | %29
 F,/E,/D,/C,/ B,, z z4 | z8 | z8 | E,,G,,B,,A,, G,,B,, E,/D,/E,/D,/ | E,B,,E,,A,, A,,B,, z2 | %34
 F,F,,A,,G,, F,F,,/G,,/ A,,/G,,/A,,/G,,/ | F,,E,E,D, E,G,, z2 | z2 C,2 z2 B,,2 | %37
 z E,C,F, F,2 B,,2 | z2 =A,,2 z2 G,,2 | z =A,,A,,D, D,2 z2 | z8 | z8 | %42
 E,/4D,/4E,/4D,/4E,/4D,/4E,/4D,/4 E,/4D,/4E,/4D,/4E,/4D,/4E,/4D,/4 E,/4D,/4E,/4D,/4E,/4D,/4E,/4D,/4 E,/4D,/4E,/4D,/4E,/4D,/4E,/4D,/4 | %43
 D,B,,G,,G, =A,C A,F, | %44
 D,/4C,/4D,/4C,/4D,/4C,/4D,/4C,/4 D,/4C,/4D,/4C,/4D,/4C,/4D,/4C,/4 D,/4C,/4D,/4C,/4D,/4C,/4D,/4C,/4 D,/4C,/4D,/4C,/4D,/4C,/4D,/4C,/4 | %45
 C,=A,,F,,F, G,B, G,E, | z4 G,/F,/E,/D,/ C, z | z4 E,/_D,/C,/B,,/ _A,, z | %48
 z4 =A,/G,/^F,/=E,/D, _E, | B,,G,,D,D, D,2 z2 | G,,/=A,,/=B,,/C,/ D, z G,,/A,,/B,,/C,/ D, z | %51
 z4 z F,D,G,, | C,2 z2 C,E,/F,/ G,/F,/G,/F,/ | E,/F,/E,/D,/ C,G,, D,2 z2 | %54
 D,,/=E,,/^F,,/G,,/ =A,, z D,,/E,,/F,,/G,,/ A,, z | z4 z C,=A,,D,, | %56
 G,, z z G,/^F,/ G, D,- D,/C,/B,,/C,/ | D, z z E,/D,/ E, B,,- B,,/_A,,/G,,/A,,/ | %58
 B,, z z C/=B,/ C G,- G,/F,/E,/F,/ | G,/F,/E,/D,/ C,/D,/E, E, =A,,B,,C, | %60
 D,D,F,E, D,F, B,/=A,/B,/A,/ | F, z z2 z C,C,E, | E, z z2 z B,,B,,D, | %63
 D, z z2 z F,,/G,,/ =A,,/B,,/C,- | C,B,, z2 C,G,, z2 | D,F,, z2 E,E,, z2 | %66
 B,/_A,/G,/F,/ E, z F,C z2 | C/B,/=A,/G,/ F, z z4 | z8 | z8 | B,,D,F,E, D,F, B,/=A,/B,/A,/ | %71
 B,F,B,,E, E,F, z2 | CC,E,D, CC,/D,/ E,/D,/E,/D,/ | C,B,B,=A, B,D, z2 | z2 G,2 z2 F,2 | %75
 z2 =E,2 z2 C,2 | z2 F,2 z2 =E,2 | z C,_D,F,, C,2 z2 | z2 F,2 z2 F,2 | z2 F,2 z A,C z | %80
 z2 C,2 z2 C,2 | z2 C,2 z G,,A,,C, | C,2 F,2 z2 E,2 | z A,F,B, B,2 E,2 | z2 D,2 z2 C,2 | %85
 z D,D,G, G,2 z2 | z8 | z8 | z2 C,G,, z2 G,E, | z G,,A,,C, D,F, D,B,, | z2 B,,F,, z2 F,D, | %91
 z F,,G,,B,, C,E, C,A,, | z4 C,/B,,/A,,/G,,/ F,, z | z4 A,,/G,,/F,,/E,,/ _D,, z | %94
 z4 =D,/C,/=B,,/=A,,/ G,, C,, | E,,C,,G,,G, ^F,2 z2 | D,/=E,/^F,/G,/ =A, z D,/E,/F,/G,/ A, z | %97
 z4 z C=A,D, | D,F,_A,G, =B,,F,/G,/ A,/G,/A,/G,/ | F,/E,/D,/C,/ =B,,D, D,2 z2 | %100
 G,,/=A,,/=B,,/C,/ D, z G,,/A,,/B,,/C,/ D, z | z4 z F,D,G,, | G,,G,C=B, CE,/F,/ G,/F,/G,/F,/ | %103
 E,F,/G,/ A,/B,/C B,F, z2 | D,F,B,=A, B,D,/E,/ F,/E,/F,/E,/ | D,E,/F,/ G,/_A,/B, CA, z2 | %106
 F,2 z2 C,/B,,/A,,/G,,/ F,, z | _D,2 z2 A,,/G,,/F,,/E,,/ _D,, z | %108
 z F,/E,/ D,/C,/=B,,/C,/ D, C,E,A, | G,A,G,F, !fermata!E,4 |[M:12/8] z12 | %111
 z G,F, z E,E, z D,F, z D,B,, | z A,,C, z D,F, z B,,E, z E,F, | z D,E, z F,E, z =A,,C, z F,F,, | %114
 z G,,C, z C,=A,, z F,D, z =E,G, | z F,C, z =A,,D, z G,,C, z C,D, | z D,G, z C,G,, z G,G,, z D,C, | %117
 z A,F, z D,=B,, z G,,D, z C,C, | z G,,D, z G,G,, z F,D, z D,=B,, | z G,,B,, z C,G, z D,A, z E,G, | %120
 z A,F, z CA, z CA, z D,G, | z G,E, z E,B,, z F,C, z F,E, | z DF, z B,,D, z E,B,, z E,G, | %123
 z C,F, z B,,F, z F,D, z G,=E, | z =A,F, z B,,B,, z F,A, z A,F, | z E,G, z =A,C z B,F, z =E,G, | %126
 z A,,B,, z C,B,, z =E,G, z E,C, | z =E,G, z G,E, z C,A,, z =B,,D, | %128
 z C,G,, z ^F,,=A,, z D,,G,, z G,,A,, | z =A,,D, z G,D, z D,D,, z A,,G,, | %130
 z E,C, z =A,,^F,, z D,,A,, z G,,G,, | z D,,=A,, z D,D,, z C,A,, z A,,^F,, | %132
 z D,^F, z G,D z =A,,E, z D,,D, | z E,C, z G,E, z G,E, z =A,,D, | D,6 _F,6- | F,6 E,6- | %136
 E,2 D, C,2 =A,, D,6- | D,6 ^C,6- | C,2 =C, B,,2 G,, C,A,C z A,C | z B,F, z G,B, z A,E, z C,A,, | %140
 z D,F, z G,E, z D,F, z D,B,, | z A,,C, z F,D, z B,,F, z E,E, | z B,,F, z B,B,, z A,F, z F,D, | %143
 z B,,D, z E,B, z F,C z B,,D, | z C,A,, z E,C, z E,C, z F,,B,, | z B,,G,, z C,B,, z A,,C, z E,G, | %146
 z A,,A, z E,A, ^F,3 z z2 | z2 z D,3 !fermata!D,6 |[M:2/4] z2 z z | z4 | z2 z G, | G,,G,,C,C, | %152
 D,D,D,D, | E,E,F,F, | G,3 G, | A,A,B,B, | C3 F, | G,G,CC | CA,F,F, | G,G,CC | CA,F,F, | F,F,B,B, | %162
 B,G,E,E, | F,F, B,B, | B,G, E,E, | A,/B,/A,/B,/ A,/B,/A,/B,/ | G,/F,/G,/F,/ G,-G,- | %167
 G,/A,/G,/A,/ G,/A,/G,/A,/ | ^F,/G,/F,/G,/ =A,F, | D,G,=B,=B,, | C,2- C,/F,/E,/D,/ | C,D,E,D, | %172
 E,2 z2 | z4 | z2 z E,/F,/ | E,/F,/E,/F,/ D,/E,/D,/E,/ | C,/=B,,/C,/B,,/ C, z | z4 | z2 z G,/A,/ | %179
 G,/A,/G,/A,/ F,/G,/F,/G,/ | E,/D,/E,/D,/ E, z | A,4 | G,4 | F,4 | E,4- | E,D,D,G, | D,2 z D, | %187
 C,=A,D,G, | ^F,/=E,/F,/E,/ D, z | z4 | z2 z D | D,D,G,G, | =A,/G,/A,/G,/ A, z | z4 | z2 z ^F, | %195
 G,D,=A,D, | B,/=A,/B,/A,/ G, z | z4 | z2 z =B, | CG,DG, | E/D/E/D/ C z | z4 | z2 z C | =B,DG,B, | %204
 CG, C, z | z4 | z2 z B, | =A,CF,A, | B,F,B,,G, | =A,,/B,,/C,/D,/ E,/F,/E,/F,/ | %210
 D,/C,/D,/C,/ D,2- | D,/E,/D,/E,/ D,/E,/D,/E,/ | ^C,/D,/C,/D,/ =E,C, | =A,,D,^F,^F,, | %214
 G,,2- G,,/C,/B,,/=A,,/ | G,,=A,,B,,A,, | B,,2 z2 | D,4- | D,4- | D,4- | D,2 ^F,2 | G,4 | F,4 | %223
 B,4 | F,3 E, | D, z z D, | G, z z G, | C, z z C, | F, z z2 | z4 | z4 | z4 | z4 | z4 | z2 z C | %235
 C,C,F,F, | G,G,G,G, | F, z C z | F, z z E, | B,/C/B,/C/ A,/B,/A,/B,/ | G,/A,/G,/A,/ F,/G,/F,/G,/ | %241
 E, z B,, z | E,, z z D, | A,/B,/A,/B,/ G,/A,/G,/A,/ | F,/G,/F,/G,/ E,/F,/E,/F,/ | D, z F, z | %246
 G, z z C, | G,/A,/G,/A,/ F,/G,/F,/G,/ | E,/F,/E,/F,/ D,/E,/D,/E,/ | C, z z2 | z2 z E,/F,/ | %251
 E,/F,/E,/F,/ D,/E,/D,/E,/ | C,/=B,,/C,/B,,/ C, z | z4 | z2 z G,/A,/ | G,/A,/G,/A,/ F,/G,/F,/G,/ | %256
 E,/D,/E,/D,/ E, z | z4 | z2 z A, | G,B,E,G, | A,E,A,, z | z4 | z2 z B, | =A,CF,A, | B,F,B,, z | %265
 z4 | z2 z C | =B,DG,B, | CG,C,G, | A,/B,/A,/B,/ A,/B,/A,/B,/ | G,/F,/G,/F,/ G,-G,- | %271
 G,/A,/G,/A,/ G,/A,/G,/A,/ | ^F,/G,/F,/G,/ =A,F, | D,4- | D,4 | E,4- | E,4 | F,4- | F,4 | E,4- | %280
 E,4 | D,4- | D,4 | E,/F,/E,/F,/ D,/E,/D,/E,/ | C,C,E,G, | G,,G,,C,C, | D,/C,/D,/C,/ D, z | z4 | %288
 z2 z =B,, | C,G,,D,G,, | E,/D,/E,/D,/ C, z | z4 | z2 z =E, | F,C,G,C, | A,/G,/A,/G,/ F, z | _D4 | %296
 C4 | B,4 | A,4- | A,G,G,C | G,2 z G, | F,DE,C | D,/C,/D,/C,/ =B,, z | z4 | z2 z G, | G,,G,,C,C, | %306
 D,D,D,D, | E,E,F,F, | G,3 G, | A,A,B,B, | C3 F, | G,G,CC | CA,F,F, | G,G,CC | CA,F,F, | F,F,B,B, | %316
 B,G,E,E, | F,F,B,B, | B,G,E,E, | A,/B,/A,/B,/ A,/B,/A,/B,/ | G,/F,/G,/F,/ G,-G,- | %321
 G,/A,/G,/A,/ G,/A,/G,/A,/ | ^F,/G,/F,/G,/ =A,F, | D,G,=B,=B,, | C,2- C,/F,/E,/D,/ | C,D,E,D, | %326
 E,2 z2 |] %327
V:12
 CEGF EE/F/ G/F/G/F/ | EF/G/ Cc dF z2 | B,DFE DD/E/ F/E/F/E/ | DE/F/ B,B cE z2 | %4
 z2 c/B/A/G/ FC z2 | z2 A/G/F/E/ _DA, z2 | z =D/E/ F/G/A G Gcc | c>d =B/4c/4B/4c/4B/G/ G2 z2 | %8
 z2 C2 z2 C2 | z2 C2 z Gc z | z2 G2 z2 G2 | z2 G2 z GcG | GEGF EE/F/ G/F/G/F/ | EF/G/ Cc dF z2 | %14
 z8 | B,DFE DD/E/ F/E/F/E/ | DE/F/ B,B cE z2 | z8 | z4 DF/E/ D/C/B,/A,/ | %19
 G,E z2 CE/D/ C/B,/A,/G,/ | A, z z2 z4 | z4 z/ d/f/d/ c/B/A/G/ | GBed EG/A/ B/A/B/A/ | %23
 G z z2 z ccf | f z z2 z BBe | e z z2 A/G/ F/E/D/C/ z | B,B z2 CA z2 | B,B z2 A,E z2 | %28
 E/D/C/B,/ A, z FB, z2 | F/E/D/C/ B, z z4 | z8 | z8 | G,B,ED B,G,/A,/ B,/A,/B,/A,/ | %33
 G,A,/B,/ C/D/E FA z2 | DB,DB, DB,/C/ D/C/D/C/ | B,AGF EB, z2 | z2 C2 z2 B,2 | z =AcA B2 B,2 | %38
 z2 =A,2 z2 G,2 | z c=A^F G2 z2 | z8 | z8 | z2 GD z2 dB | G=A/B/ c/d/e eA z2 | z2 FC z2 c=A | %45
 FG/=A/ B/c/d dG z2 | z2 G/F/E/D/ C z z2 | z2 E/_D/C/B,/ _A, z z2 | z2 E/D/C/B,/ C =ABc | %49
 dedc =B G,/=A,/ =B,/C/D | z2 =B,/C/D/E/ F z B,/C/D/E/ | F z z2 z D=B,G | GEGF EG c/=B/c/B/ | %53
 cG cd/e/ =A D/=E/ ^F/G/A | z2 ^F/G/=A/B/ c z F/G/A/B/ | c z z2 z =A^Fd | %56
 dg/^f/ g z D/C/B,/=A,/ G, z | z e/d/ e z B/_A/G/F/ E z | z c/=B/ c z G/F/E/D/ C z | %59
 z4 z/ =A/c/B/ A/G/F/E/ | DFB=A B,D/E/ F/E/F/E/ | D z z2 z GGc | c z z2 z FFB | %63
 B z z2 z e/d/ c/B/=A/G/ | Ff z2 Ge z2 | Fd z2 EB z2 | B/_A/G/F/ E z cF z2 | c/B/=A/G/ F z z4 | %68
 z8 | z8 | DFB=A BD/E/ F/E/F/E/ | DE/F/ G/=A/B cE z2 | =AFAF AF/G/ A/G/A/G/ | Fedc BF z2 | %74
 z2 =e2 z2 f2 | z2 _d2 z2 c2 | z2 B2 z2 g2 | z fAc =E2 z2 | z2 F2 z2 F2 | z2 F2 z cf z | %80
 z2 C2 z2 C2 | z2 C2 z CFC | F2 F2 z2 E2 | z dfd e2 E2 | z2 D2 z2 C2 | z fd=B c2 z2 | z8 | z8 | %88
 g/4f/4g/4f/4g/4f/4g/4f/4 g/4f/4g/4f/4g/4f/4g/4f/4 g/4f/4g/4f/4g/4f/4g/4f/4 g/4f/4g/4f/4g/4f/4g/4f/4 | %89
 g/c/d/e/ f/g/a ad z2 | %90
 f/4e/4f/4e/4f/4e/4f/4e/4 f/4e/4f/4e/4f/4e/4f/4e/4 f/4e/4f/4e/4f/4e/4f/4e/4 f/4e/4f/4e/4f/4e/4f/4e/4 | %91
 f/B/c/d/ e/f/g gc z2 | z2 c/B/A/G/ F z z2 | z2 A/G/F/E/ _D z z2 | z2 A/G/F/E/ F =DEF | %95
 GAGD- D D/=D/ ^F/G/^A | z2 ^F/G/=A/B/ c z F/G/A/B/ | c z z2 z =A^Fd | =BBdc DB/c/ d/c/d/c/ | %99
 =B/=A/B/c/ d/e/f- f G/=A/ =B/c/d | z2 =B/c/d/e/ f z B/c/d/e/ | f z z2 z d=Bd | cEGF EG c/=B/c/B/ | %103
 cccf fB z2 | B,DFE DF B/=A/B/A/ | BBBe eE z2 | z2 c/B/A/G/ FC z2 | z2 A/G/F/E/ _DA, z2 | %108
 z =D/E/ F/G/A G Gcc | c>d =B>G !fermata!G4 |[M:12/8] z12 | z BA z BA z B,C z FB | %112
 z FA z BF z EB, z C=A | z FE z DB, z CE z FB, | z cG z Fc z Bd z Gc | z AF z G=B z cG z cf | %116
 z d=B z Gc z BG z DG | z FA z DG z GF z GF | z DF z GC z DA z Gd | z ed z cB z AF z Ec | %120
 z cC z GD z Gc z =Bd | z ce z FG z c=A z =A,C | z FD z GA z BG z GE | z F=A z Bc z Bd z BG | %124
 z cC z FE z EC z CF | z CE z FC z FB z G=E | z CB, z A,F z G,C z cF | z G_d z cG z FA z DG | %128
 z EC z D^F z GD z Gc | z =A^F z DG z FD z =A,D | z CE z =A,D z DC z DC | %131
 z =A,C z DG, z A,E z D=A | z B=A z GF z EC z B,G | z GG, z D=A, z DG z ^F=A | G12- | G6 F6- | %136
 F12- | F6 E6- | E6- EEG z cf | z FB z Be z cA z EC | z FB z BA z B,D z FB | z FA z BF z BA z BA | %142
 z FA z BE z Fc z Bf | z gf z ed z cA z GF | z Ee z B,F z B,E z DF | z EB, z FE z EA z ce | %146
 z ec z Ac c3 z z2 | z2 z [=Ac]3 !fermata![G=B]6 |[M:2/4] z2 z z | z4 | z2 z c | dD EF | %152
 G/=A/G/A/ =B/c/d/B/ | G c2 =B | cGcG | c f2 =e | fcfc | gcgc | fcfc | gcgc | fcfc | ^e^AeA | %162
 ^d^AdA | f^AfA | ^d^AdA | =B c2 d | d2- d/c/d/=B/ | c2 c2 | c3 D | G=B d2- | dc/=B/ cC/D/ | EAGG | %172
 G2 z2 | z4 | z2 z G/F/ | G/A/G/A/ F/G/F/G/ | E/F/E/F/ G z | z4 | z2 z B/A/ | B/c/B/c/ ^G/B/A/B/ | %180
 G/A/G/A/ B z | z4 | z4 | z4 | z4 | z4 | z2 z D | C=AB,G | =A,/G,/A,/G,/ A, z | z4 | z2 z g | %191
 =a=ABc | d/=e/d/e/ ^f z | z4 | z2 z ^F | GD=AD | B/=A/B/A/ G z | z4 | z2 z =B | cGdG | %200
 e/d/e/d/ c z | z4 | z2 z c | =BdGB | cG C z | z4 | z2 z B | =AcFA | BFB,G | ^F G2 =A | %210
 =A2 A/G/A/^F/ | G2 G2 | G3 =A, | D^F =A2- | AG/^F/ GG,/=A,/ | B,EDD | D2 z2 | G4 | =A4 | B4 | %220
 =A3 c | B4 | c4 | d4 | c2 =A2- | A2 _A2 | G4- | G4 | F4 | z4 | z4 | z4 | z4 | z4 | z2 z f | gGAB | %236
 c/d/c/d/ =ec | c z e z | f z z E | B/c/B/c/ ^G/B/A/B/ | G/A/G/A/ F/G/F/G/ | E z B z | e z z D | %243
 A/B/A/B/ G/A/G/A/ | F/G/F/G/ E/F/E/F/ | D z F z | G z z C | G/A/G/A/ F/G/F/G/ | %248
 E/F/E/F/ D/E/D/E/ | C z z2 | z2 z G/F/ | G/A/G/A/ F/G/F/G/ | E/F/E/F/ G z | z4 | z2 z B/A/ | %255
 B/c/B/c/ A/B/A/B/ | G/A/G/A/ B z | z4 | z2 z A | GBEG | AE A, z | z4 | z2 z B | =AcFA | BFB, z | %265
 z4 | z2 z c | =BdGB | cGCc | =B c2 d | d2- d/c/d/=B/ | c z c z | c3 D | G4- | G4- | G4- | G4 | %277
 =A4- | A4- | A4 | G4- | G4- | G4 | E/F/E/F/ D/E/D/E/ | CEGc | dDEF | G/=A/G/A/ =B z | z4 | %288
 z2 z =B, | CG,DG, | E/D/E/D/ C z | z4 | z2 z =E | FCGC | A/G/A/G/ F z | z4 | z4 | z4 | z4 | z4 | %300
 z2 z G | FdEc | D/C/D/C/ =B, z | z4 | z2 z c | dDEF | G/=A/G/A/ =B/c/d/B/ | G c2 =B | cGcG | %309
 c f2 =e | fcfc | gcgc | fcfc | gcgc | fcfc | ^e^AeA | ^d^AdA | f^AfA | ^d^AdA | =B c2 d | %320
 d2- d/c/d/=B/ | c2 c2 | c2- c/-c/4 z/4 D | G=B d2- | dc/=B/ cC/D/ | EAGG | G2 z2 |] %327
V:13
 C,2 z2 C,2 z2 | C,CA,F, B,,B, z2 | B,,2 z2 B,,2 z2 | B,,B,G,E, A,,A, z2 | %4
 A, C/B,/ A,C/B,/ A,C/B,/ A,G, | F, A,/G,/ F,A,/G,/ F,A,/G,/ F,E, | %6
 _D,/C,/=B,,/C,/ =D,/E,/F,- F, E,A,F, | G,F,G,G,, C, G,,E,,G,, | C,,2 z2 C,,2 z2 | %9
 C,,2 z2 C,, C,/=B,,/ C,/D,/E,/F,/ | G,2 z2 G,2 z2 | G,2 z2 G,, G,/F,/ E,/D,/C,/=B,,/ | %12
 C,2 z2 C,2 z2 | C,CA,F, B,,B, z2 | z8 | B,,2 z2 B,,2 z2 | B,,B,G,E, A,,A, z2 | z8 | %18
 A,C/B,/ A,/G,/F,/E,/ D,B,, z2 | G,B,/A,/ G,/F,/E,/D,/ C,A,, z2 | F, A,/G,/ F,E, D, F,/E,/ D,C, | %21
 E,G,CG, D, B,,C,D, | E,2 z2 E,,2 z2 | E,ECA, F,A,/G,/ F,/E,/D,/C,/ | %24
 D,DB,G, E,G,/F,/ E,/D,/C,/B,,/ | C,CA,F, D,F,/E,/ D,/C,/B,,/A,,/ | G,,2 z2 A,,2 z2 | %27
 G,,2 z2 A,, E,/D,/ C,E,/D,/ | C,E,/C,/ C,F,/D,/ D, F,/E,/ D,F,/E,/ | D,F,/E,/D, B,, E,C,A,,F, | %30
 D,B,,G,E, B,, C/B,/ A,/G,/F,/A,/ | G,/F,/E,/D,/ C,/B,,/=A,,/C,/ B,,=A,B,B,, | E,,2 z2 E,,2 z2 | %33
 E,,E,C,A,, D,, D,/E,/ F,/G,/A, | B,,2 z2 B,,2 z2 | B,,C,B,,A,, G,, G,/A,/ B,/C/_D | %36
 C,2 z2 B,,2 z2 | =A,, C,F,F,, B,,2 z2 | =A,,2 z2 G,,2 z2 | ^F,, =A,,D,D,, G,, B,,E,E,, | %40
 =A,, C,F,F,, B,, D,G,G,, | C,E,=A,C D,E,D,C, | B,,G,, z2 G,B,, z2 | B,G,E,C, F,,F, z2 | %44
 =A,,F,, z2 F,A,, z2 | =A,F,D,B,, E,,E, z2 | z4 E,C z2 | z4 C,_A, z2 | z4 =A,, ^F,G,E, | %49
 D,C,D,D,, G,,G, z2 | G,,G, z2 G,,G, z2 | G,,G, D,F, =B,,D, G,,B,, | C,2 z2 C,2 z2 | %53
 C,D,E,C, D,D,, z2 | D,D,, z2 D,D,, z2 | D,D =A,C ^F,A, D,F, | B,, D/C/ B,D/C/ B,D/C/ B,=A, | %57
 G, B,/_A,/ G,B,/A,/ G,B,/A,/ G,F, | E, G,/F,/ E,G,/F,/ E,G,/F,/ E,D, | C,E,G,B, =A, F,G,A, | %60
 B,2 z2 B,,2 z2 | B,,B,G,E, C,E,/D,/ C,/B,,/=A,,/G,,/ | =A,,=A,F,D, B,,D,/C,/ B,,/A,,/G,,/F,,/ | %63
 G,,G,E,C, =A,,C,/B,,/ A,,/G,,/F,,/E,,/ | D,,2 z2 E,,2 z2 | F,,2 z2 G,, B,,/_A,,/ G,,B,,/A,,/ | %66
 G,,B,,/A,,/ G,,C,/B,,/ =A,, C,/B,,/ A,,C,/B,,/ | =A,,C,/B,,/ A,, F,, B,,G,,E,,C, | %68
 =A,,F,,D,B,, G,, G,/F,/ E,/D,/C,/E,/ | D,/C,/B,,/=A,,/ G,,/F,,/=E,,/G,,/ F,,=E,F,F,, | %70
 B,,2 z2 B,,2 z2 | B,,B,G,E, =A,, =A,/B,/ C/D/E | F,2 z2 F,,2 z2 | %73
 F,G,F,E, D,/C,/D,/E,/ F,/G,/_A, | G,,2 z2 A,,2 z2 | B,,2 z2 C,2 z2 | D,2 z2 =E,2 z2 | %77
 F, =E,_D,_D CB,A,G, | F,2 z2 F,2 z2 | F,2 z2 F, F,,/=E,,/ F,,/G,,/A,,/B,,/ | C,2 z2 C,2 z2 | %81
 C,2 z2 C, C/B,/ A,/G,/F,/=E,/ | F,2 z2 _E,2 z2 | D, F,B,F, E,2 z2 | D,2 z2 C,2 z2 | %85
 =B,, D,G,D, C, E,A,A,, | D, F,B,F, E, G,CG, | F,A, D,F, G,A, G,F, | E,C, z2 CE, z2 | %89
 ECA,F, B,,B, z2 | D,B,, z2 B,D, z2 | DB,G,E, A,,A, z2 | z4 A,,F, z2 | z4 F,,_D, z2 | %94
 z4 =D,, =B,,C,A, | G,F,G,G,, D,,D, z2 | D,,D, z2 D,,D, z2 | D,D =A,C ^F,A, D,F, | %98
 G,D,=A,,C, F,/E,/D,/C,/ B,,C, | G,,G,D,=B,, G,,G, z2 | G,,G, z2 G,,G, z2 | %101
 G,,G, D,F, =B,,D, G,,B,, | C,,2 z2 C,,2 z2 | C,CA,F, B,,B, z2 | B,,2 z2 B,,2 z2 | %105
 B,,B,G,E, A,,A, z2 | A, C/B,/ A,C/B,/ A,C/B,/ A,G, | F, A,/G,/ F,A,/G,/ F,A,/G,/ F,E, | %108
 _D,/C,/=B,,/C,/ =D,/E,/F,- F, E,A,F, | G,F,G,G,, !fermata!C,,4 |[M:12/8] z12 | %111
 E,,2 F,, G,,2 A,, B,,2 B, A,2 G, | F,2 E, D,B,,D, E,G,E, C,F,F,, | B,,2 C, D,2 E, F,,2 F, E,2 D, | %114
 C,2 B,, =A,,F,,A,, B,,B,A, G,=E,C, | F,2 E, D,=B,,G,, C,2 _B,, A,,A,F, | %116
 G,2 F, E,2 C, G,,2 G, F,2 E, | D,2 C, =B,,G,,B,, C,2 D, E,2 F, | %118
 G,,2 G, F,2 E, D,2 C, =B,,G,,B,, | C,2 B,, A,,2 G,, F,,2 F, G,2 G,, | %120
 A,,2 A, G,2 F, G,2 F, G,2 G,, | C,2 B,, =A,,2 G,, F,,2 E, D,2 C, | %122
 B,,2 A,, G,,2 F,, E,,2 D, C,2 B,, | =A,,C,A,, F,,G,,A,, B,,2 A,, G,,2 C, | %124
 F,,2 E,, D,,2 E,, F,,2 F, E,2 D, | C,2 B,, =A,,F,,A,, B,,D,F, =E,C,E, | %126
 F,,2 G,, A,,2 B,, C,2 C B,2 A, | G,2 F, =E,C,E, F,,F,_E, D,=B,,G,, | %128
 C,CB, =A,^F,D, G,,2 F,, E,,E,C, | D,2 C, B,,2 G,, D,,2 D, C,2 B,, | %130
 =A,,2 G,, ^F,,D,,F,, G,,2 A,, B,,2 C, | D,2 D C2 B, =A,2 G, ^F,D,F, | %132
 G,2 F, E,2 D, C,2 C,, D,,2 D, | E,2 E,, D,,2 C,, D,,2 C, D,2 D,, | %134
 G,,2 =A,, B,,A,,G,, C,2 D, =E,2 F, | G,2 F, =E,2 C, F,,2 G,, =A,,2 B,, | %136
 C,2 B,, =A,,2 F,, B,,2 C, D,2 E, | F,2 E, D,2 B,, E,,2 F,, G,,2 A,, | %138
 B,,2 A,, G,,2 E, A,2 G, F,2 E, | D,2 B,, E,2 E,, A,,2 E, A,3- | A,2 A,, G,,2 A,, B,,2 B, A,2 G, | %141
 F,2 E, D,B,,D, E,2 F, G,2 A, | B,,2 B, A,2 G, F,2 E, D,B,,D, | E,2 D, C,2 B,, A,,2 A, B,2 B,, | %144
 C,2 C B,2 A, B,2 A, B,2 B,, | E,2 E,, F,,2 G,, A,,2 G,, A,,2 B,, | C,2 A,, E,2 C, D,3 z z2 | %147
 z2 z D,,3 !fermata!G,,6 |[M:2/4] z2 z z | z4 | z2 z C | B,/C/B,/C/ A,/B,/A,/B,/ | G,D,G,,F, | %153
 E,/F,/E,/F,/ D,/E,/D,/E,/ | C,/D,/C,/D,/ B,,/C,/B,,/C,/ | A,,/B,,/A,,/B,,/ G,,/A,,/G,,/A,,/ | %156
 F,,/=E,,/F,,/G,,/ A,,/B,,/C,/D,/ | =E,G,C,E, | F,F,,A,,C, | =E,G,C,E, | F,F,,A,,C, | D,F,B,,D, | %162
 E,E,,G,,B,, | D,F,B,,D, | E,,E,G,E, | D,A,C,A, | =B,,/=A,,/B,,/A,,/ G,,/A,,/B,,/G,,/ | C,G,B,,F, | %168
 =A,,/G,,/A,,/G,,/ ^F,,/G,,/A,,/F,,/ | G,,/A,,/G,,/A,,/ G,,/A,,/F,,/G,,/ | %170
 A,,/A,/G,/F,/ E,/A,/G,/F,/ | E,/A,/G,/F,/ G,G,, | C,G,,C,, z | z4 | z2 z C,/D,/ | E,C,G,G,, | %176
 C,G,,C,, z | z4 | z2 z E,/F,/ | G,E,B,B,, | E,B,,E,,E, | A,F,D,B,, | z E,/D,/C,A,, | D,C,=B,,G,, | %184
 z C,/B,,/ =A,,G,, | ^F,,^F,G,C, | D,4- | D,4- | D,2- D,/E,/C,/D,/ | %189
 B,,/C,/B,,/C,/ =A,,/B,,/A,,/B,,/ | G,,DB,G, | F,/G,/F,/G,/ E,/F,/E,/F,/ | D,=A,, D,, z | z4 | %194
 z2 z D, | G,B,,C,D, | G,,D,G, z | z4 | z2 z G, | CE,F,G, | C,G,,C,,C | =B,DG,B, | CC, C z | %203
 z2 z G, | CC,CB, | =A,CF,A, | B,B,, B, z | z2 z F, | B,B,,B,E | =A,EG,E | %210
 ^F,/=E,/F,/E,/ D,/E,/F,/D,/ | G,,DF,D | =E,/D,/E,/D,/ ^C,/D,/E,/C,/ | D,/E,/D,/E,/ D,/E,/C,/D,/ | %214
 E,D,/C,/ B,,/E,/D,/C,/ | B,,/E,/D,/C,/ D,D,, | G,,2 z2 | G,2 B,2 | D2 z C | B,DG,D | %220
 ^F,/=E,/F,/E,/ D, z | G,2 D,,2 | =A,,2 z F, | B,,F,B,,D, | =A,,/G,,/A,,/G,,/ F,, z | z D, D,, z | %226
 z G, G,, z | z C, C,, z | z F, F,,F, | B,F,DF, | G,B,G,=E, | F,_D,B,,G,, | C,G,, C,, z | z4 | %234
 z2 z F, | E,/F,/E,/F,/ _D,/E,/D,/E,/ | C,G,,C,,=E, | F,/G,/F,/G,/ E,/F,/E,/F,/ | %238
 D,/E,/D,/E,/ C,/D,/C,/D,/ | B,/C/B,/C/ A,/B,/A,/B,/ | G,/A,/G,/A,/ F,/G,/F,/G,/ | %241
 E,/F,/E,/F,/ D,/E,/D,/E,/ | C,/D,/C,/D,/ B,,/C,/B,,/C,/ | A,/B,/A,/B,/ G,/A,/G,/A,/ | %244
 F,/G,/F,/G,/ E,/F,/E,/F,/ | D,/E,/D,/E,/ C,/D,/C,/D,/ | =B,,/C,/B,,/C,/ =A,,/B,,/A,,/B,,/ | %247
 G,/A,/G,/A,/ F,/G,/F,/G,/ | E,/F,/E,/F,/ D,/E,/D,/E,/ | C, z z2 | z2 z C,/D,/ | E,C,G,G,, | %252
 C,G,,C,, z | z4 | z2 z E,/F,/ | G,E,B,B,, | E,B,, E,,E,/F,/ | G,B,E,G, | A,A,,A, z | z2 z E, | %260
 A,A,, A,F,/G,/ | =A,CF,A, | B,B,,B, z | z2 z F, | B,B,, B,G,/=A,/ | =B,DG,B, | CC,C z | z2 z G, | %268
 CC,CE, | D,A,C,A, | =B,,/=A,,/B,,/A,,/ G,,/A,,/B,,/G,,/ | C,G,B,,G, | %272
 =A,,/G,,/A,,/G,,/ ^F,,/G,,/A,,/F,,/ | F,,4- | F,,4- | F,,4- | F,,4- | F,,4- | F,,4- | F,,4- | %280
 F,,4- | F,,4- | F,,4 | C,,2 z z | z2 z C | B,/C/B,/C/ A,/B,/A,/B,/ | G,D, G,, z | z4 | z2 z G,, | %289
 C,E,,F,,G,, | C,,G,, C, z | z4 | z2 z C, | F,A,,B,,C, | F,,C,F,A, | B,A,G,E, | z A,/G,/ F,_D, | %297
 G,F,=E,C, | z F,/E,/ D,C, | =B,,=B,CF, | G,4- | G,4- | G,2- G,/A,/F,/G,/ | %303
 E,/F,/E,/F,/ D,/E,/D,/E,/ | C,G,E,C, | B,,/C,/B,,/C,/ A,,/B,,/A,,/B,,/ | G,,D, G,F, | %307
 E,/F,/E,/F,/ D,/E,/D,/E,/ | C,/D,/C,/D,/ B,,/C,/B,,/C,/ | A,,/B,,/A,,/B,,/ G,,/A,,/G,,/A,,/ | %310
 F,,/=E,,/F,,/G,,/ A,,/B,,/C,/D,/ | =E,G,C,E, | F,F,,A,,C, | =E,G,C,E, | F,F,,A,,C, | D,F,B,,D, | %316
 E,E,,G,,B,, | D,F,B,,D, | E,,E,G,E, | D,A,C,A, | =B,,/=A,,/B,,/A,,/ G,,/A,,/B,,/G,,/ | C,G,B,,F, | %322
 =A,,/G,,/A,,/G,,/ ^F,,/G,,/A,,/F,,/ | G,,/A,,/G,,/A,,/ G,,/A,,/F,,/G,,/ | %324
 A,,/A,/G,/F,/ E,/A,/G,/F,/ | E,/A,/G,/F,/ G,G,, | C,,2 z2 |] %327

